;FLAVOR:UltiGCode
;TIME:401
;MATERIAL:421
;MATERIAL2:0
;NOZZLE_DIAMETER:0.600000
;NOZZLE_DIAMETER2:0.600000
;Layer count: 41
;LAYER:0
M107
G0 F9000 X100 Y100 Z0.180
G0 X100.105 Y101.376
G1 F1200 X107.9 Y102.1 Z0 E0
G1 F1200 X92.1 Y102.1 Z0 E3.16
G1 F1200 X92.1 Y107.9 Z0 E4.32
G1 F1200 X107.9 Y107.9 Z0 E7.48
G1 F1200 X107.9 Y102.1 Z0 E8.64
G1 F1200 X108.5 Y101.5 Z0 E8.64
G1 F1200 X91.5 Y101.5 Z0 E12.04
G1 F1200 X91.5 Y108.5 Z0 E13.44
G1 F1200 X108.5 Y108.5 Z0 E16.84
G1 F1200 X108.5 Y101.5 Z0 E18.24
G1 F1200 X109.1 Y100.9 Z0 E18.24
G1 F1200 X90.9 Y100.9 Z0 E21.88
G1 F1200 X90.9 Y109.1 Z0 E23.52
G1 F1200 X109.1 Y109.1 Z0 E27.16
G1 F1200 X109.1 Y100.9 Z0 E28.8
G1 F1200 X109.7 Y100.3 Z0 E28.8
G1 F1200 X90.3 Y100.3 Z0 E32.68
G1 F1200 X90.3 Y109.7 Z0 E34.56
G1 F1200 X109.7 Y109.7 Z0 E38.44
G1 F1200 X109.7 Y100.3 Z0 E40.32
G1 F1200 X107.9 Y102.1 Z0.3 E40.32
G1 F1200 X92.1 Y102.1 Z0.3 E43.48
G1 F1200 X92.1 Y107.9 Z0.3 E44.64
G1 F1200 X107.9 Y107.9 Z0.3 E47.8
G1 F1200 X107.9 Y102.1 Z0.3 E48.96
G1 F1200 X108.5 Y101.5 Z0.3 E48.96
G1 F1200 X91.5 Y101.5 Z0.3 E52.36
G1 F1200 X91.5 Y108.5 Z0.3 E53.76
G1 F1200 X108.5 Y108.5 Z0.3 E57.16
G1 F1200 X108.5 Y101.5 Z0.3 E58.56
G1 F1200 X109.1 Y100.9 Z0.3 E58.56
G1 F1200 X90.9 Y100.9 Z0.3 E62.2
G1 F1200 X90.9 Y109.1 Z0.3 E63.84
G1 F1200 X109.1 Y109.1 Z0.3 E67.48
G1 F1200 X109.1 Y100.9 Z0.3 E69.12
G1 F1200 X109.7 Y100.3 Z0.3 E69.12
G1 F1200 X90.3 Y100.3 Z0.3 E73
G1 F1200 X90.3 Y109.7 Z0.3 E74.88
G1 F1200 X109.7 Y109.7 Z0.3 E78.76
G1 F1200 X109.7 Y100.3 Z0.3 E80.64
G1 F1200 X107.9 Y102.1 Z0.6 E80.64
G1 F1200 X92.1 Y102.1 Z0.6 E83.8
G1 F1200 X92.1 Y107.9 Z0.6 E84.96
G1 F1200 X107.9 Y107.9 Z0.6 E88.12
G1 F1200 X107.9 Y102.1 Z0.6 E89.28
G1 F1200 X108.5 Y101.5 Z0.6 E89.28
G1 F1200 X91.5 Y101.5 Z0.6 E92.68
G1 F1200 X91.5 Y108.5 Z0.6 E94.08
G1 F1200 X108.5 Y108.5 Z0.6 E97.48
G1 F1200 X108.5 Y101.5 Z0.6 E98.88
G1 F1200 X109.1 Y100.9 Z0.6 E98.88
G1 F1200 X90.9 Y100.9 Z0.6 E102.52
G1 F1200 X90.9 Y109.1 Z0.6 E104.16
G1 F1200 X109.1 Y109.1 Z0.6 E107.8
G1 F1200 X109.1 Y100.9 Z0.6 E109.44
G1 F1200 X109.7 Y100.3 Z0.6 E109.44
G1 F1200 X90.3 Y100.3 Z0.6 E113.32
G1 F1200 X90.3 Y109.7 Z0.6 E115.2
G1 F1200 X109.7 Y109.7 Z0.6 E119.08
G1 F1200 X109.7 Y100.3 Z0.6 E120.96
G1 F1200 X107.9 Y102.1 Z0.9 E120.96
G1 F1200 X92.1 Y102.1 Z0.9 E124.12
G1 F1200 X92.1 Y107.9 Z0.9 E125.28
G1 F1200 X107.9 Y107.9 Z0.9 E128.44
G1 F1200 X107.9 Y102.1 Z0.9 E129.6
G1 F1200 X108.5 Y101.5 Z0.9 E129.6
G1 F1200 X91.5 Y101.5 Z0.9 E133
G1 F1200 X91.5 Y108.5 Z0.9 E134.4
G1 F1200 X108.5 Y108.5 Z0.9 E137.8
G1 F1200 X108.5 Y101.5 Z0.9 E139.2
G1 F1200 X109.1 Y100.9 Z0.9 E139.2
G1 F1200 X90.9 Y100.9 Z0.9 E142.84
G1 F1200 X90.9 Y109.1 Z0.9 E144.48
G1 F1200 X109.1 Y109.1 Z0.9 E148.12
G1 F1200 X109.1 Y100.9 Z0.9 E149.76
G1 F1200 X109.7 Y100.3 Z0.9 E149.76
G1 F1200 X90.3 Y100.3 Z0.9 E153.64
G1 F1200 X90.3 Y109.7 Z0.9 E155.52
G1 F1200 X109.7 Y109.7 Z0.9 E159.4
G1 F1200 X109.7 Y100.3 Z0.9 E161.28
G1 F1200 X107.9 Y102.1 Z1.2 E161.28
G1 F1200 X92.1 Y102.1 Z1.2 E164.44
G1 F1200 X92.1 Y107.9 Z1.2 E165.6
G1 F1200 X107.9 Y107.9 Z1.2 E168.76
G1 F1200 X107.9 Y102.1 Z1.2 E169.92
G1 F1200 X108.5 Y101.5 Z1.2 E169.92
G1 F1200 X91.5 Y101.5 Z1.2 E173.32
G1 F1200 X91.5 Y108.5 Z1.2 E174.72
G1 F1200 X108.5 Y108.5 Z1.2 E178.12
G1 F1200 X108.5 Y101.5 Z1.2 E179.52
G1 F1200 X109.1 Y100.9 Z1.2 E179.52
G1 F1200 X90.9 Y100.9 Z1.2 E183.16
G1 F1200 X90.9 Y109.1 Z1.2 E184.8
G1 F1200 X109.1 Y109.1 Z1.2 E188.44
G1 F1200 X109.1 Y100.9 Z1.2 E190.08
G1 F1200 X109.7 Y100.3 Z1.2 E190.08
G1 F1200 X90.3 Y100.3 Z1.2 E193.96
G1 F1200 X90.3 Y109.7 Z1.2 E195.84
G1 F1200 X109.7 Y109.7 Z1.2 E199.72
G1 F1200 X109.7 Y100.3 Z1.2 E201.6
G1 F1200 X107.9 Y102.1 Z1.5 E201.6
G1 F1200 X92.1 Y102.1 Z1.5 E204.76
G1 F1200 X92.1 Y107.9 Z1.5 E205.92
G1 F1200 X107.9 Y107.9 Z1.5 E209.08
G1 F1200 X107.9 Y102.1 Z1.5 E210.24
G1 F1200 X108.5 Y101.5 Z1.5 E210.24
G1 F1200 X91.5 Y101.5 Z1.5 E213.64
G1 F1200 X91.5 Y108.5 Z1.5 E215.04
G1 F1200 X108.5 Y108.5 Z1.5 E218.44
G1 F1200 X108.5 Y101.5 Z1.5 E219.84
G1 F1200 X109.1 Y100.9 Z1.5 E219.84
G1 F1200 X90.9 Y100.9 Z1.5 E223.48
G1 F1200 X90.9 Y109.1 Z1.5 E225.12
G1 F1200 X109.1 Y109.1 Z1.5 E228.76
G1 F1200 X109.1 Y100.9 Z1.5 E230.4
G1 F1200 X109.7 Y100.3 Z1.5 E230.4
G1 F1200 X90.3 Y100.3 Z1.5 E234.28
G1 F1200 X90.3 Y109.7 Z1.5 E236.16
G1 F1200 X109.7 Y109.7 Z1.5 E240.04
G1 F1200 X109.7 Y100.3 Z1.5 E241.92
G1 F1200 X107.9 Y102.1 Z1.8 E241.92
G1 F1200 X92.1 Y102.1 Z1.8 E245.08
G1 F1200 X92.1 Y107.9 Z1.8 E246.24
G1 F1200 X107.9 Y107.9 Z1.8 E249.4
G1 F1200 X107.9 Y102.1 Z1.8 E250.56
G1 F1200 X108.5 Y101.5 Z1.8 E250.56
G1 F1200 X91.5 Y101.5 Z1.8 E253.96
G1 F1200 X91.5 Y108.5 Z1.8 E255.36
G1 F1200 X108.5 Y108.5 Z1.8 E258.76
G1 F1200 X108.5 Y101.5 Z1.8 E260.16
G1 F1200 X109.1 Y100.9 Z1.8 E260.16
G1 F1200 X90.9 Y100.9 Z1.8 E263.8
G1 F1200 X90.9 Y109.1 Z1.8 E265.44
G1 F1200 X109.1 Y109.1 Z1.8 E269.08
G1 F1200 X109.1 Y100.9 Z1.8 E270.72
G1 F1200 X109.7 Y100.3 Z1.8 E270.72
G1 F1200 X90.3 Y100.3 Z1.8 E274.6
G1 F1200 X90.3 Y109.7 Z1.8 E276.48
G1 F1200 X109.7 Y109.7 Z1.8 E280.36
G1 F1200 X109.7 Y100.3 Z1.8 E282.24
G1 F1200 X107.9 Y102.1 Z2.1 E282.24
G1 F1200 X92.1 Y102.1 Z2.1 E285.4
G1 F1200 X92.1 Y107.9 Z2.1 E286.56
G1 F1200 X107.9 Y107.9 Z2.1 E289.72
G1 F1200 X107.9 Y102.1 Z2.1 E290.88
G1 F1200 X108.5 Y101.5 Z2.1 E290.88
G1 F1200 X91.5 Y101.5 Z2.1 E294.28
G1 F1200 X91.5 Y108.5 Z2.1 E295.68
G1 F1200 X108.5 Y108.5 Z2.1 E299.08
G1 F1200 X108.5 Y101.5 Z2.1 E300.48
G1 F1200 X109.1 Y100.9 Z2.1 E300.48
G1 F1200 X90.9 Y100.9 Z2.1 E304.12
G1 F1200 X90.9 Y109.1 Z2.1 E305.76
G1 F1200 X109.1 Y109.1 Z2.1 E309.4
G1 F1200 X109.1 Y100.9 Z2.1 E311.04
G1 F1200 X109.7 Y100.3 Z2.1 E311.04
G1 F1200 X90.3 Y100.3 Z2.1 E314.92
G1 F1200 X90.3 Y109.7 Z2.1 E316.8
G1 F1200 X109.7 Y109.7 Z2.1 E320.68
G1 F1200 X109.7 Y100.3 Z2.1 E322.56
G1 F1200 X107.9 Y102.1 Z2.4 E322.56
G1 F1200 X92.1 Y102.1 Z2.4 E325.72
G1 F1200 X92.1 Y107.9 Z2.4 E326.88
G1 F1200 X107.9 Y107.9 Z2.4 E330.04
G1 F1200 X107.9 Y102.1 Z2.4 E331.2
G1 F1200 X108.5 Y101.5 Z2.4 E331.2
G1 F1200 X91.5 Y101.5 Z2.4 E334.6
G1 F1200 X91.5 Y108.5 Z2.4 E336
G1 F1200 X108.5 Y108.5 Z2.4 E339.4
G1 F1200 X108.5 Y101.5 Z2.4 E340.8
G1 F1200 X109.1 Y100.9 Z2.4 E340.8
G1 F1200 X90.9 Y100.9 Z2.4 E344.44
G1 F1200 X90.9 Y109.1 Z2.4 E346.08
G1 F1200 X109.1 Y109.1 Z2.4 E349.72
G1 F1200 X109.1 Y100.9 Z2.4 E351.36
G1 F1200 X109.7 Y100.3 Z2.4 E351.36
G1 F1200 X90.3 Y100.3 Z2.4 E355.24
G1 F1200 X90.3 Y109.7 Z2.4 E357.12
G1 F1200 X109.7 Y109.7 Z2.4 E361
G1 F1200 X109.7 Y100.3 Z2.4 E362.88
G1 F1200 X107.9 Y102.1 Z2.7 E362.88
G1 F1200 X92.1 Y102.1 Z2.7 E366.04
G1 F1200 X92.1 Y107.9 Z2.7 E367.2
G1 F1200 X107.9 Y107.9 Z2.7 E370.36
G1 F1200 X107.9 Y102.1 Z2.7 E371.52
G1 F1200 X108.5 Y101.5 Z2.7 E371.52
G1 F1200 X91.5 Y101.5 Z2.7 E374.92
G1 F1200 X91.5 Y108.5 Z2.7 E376.32
G1 F1200 X108.5 Y108.5 Z2.7 E379.72
G1 F1200 X108.5 Y101.5 Z2.7 E381.12
G1 F1200 X109.1 Y100.9 Z2.7 E381.12
G1 F1200 X90.9 Y100.9 Z2.7 E384.76
G1 F1200 X90.9 Y109.1 Z2.7 E386.4
G1 F1200 X109.1 Y109.1 Z2.7 E390.04
G1 F1200 X109.1 Y100.9 Z2.7 E391.68
G1 F1200 X109.7 Y100.3 Z2.7 E391.68
G1 F1200 X90.3 Y100.3 Z2.7 E395.56
G1 F1200 X90.3 Y109.7 Z2.7 E397.44
G1 F1200 X109.7 Y109.7 Z2.7 E401.32
G1 F1200 X109.7 Y100.3 Z2.7 E403.2
G1 F1200 X107.9 Y102.1 Z3 E403.2
G1 F1200 X92.1 Y102.1 Z3 E406.36
G1 F1200 X92.1 Y107.9 Z3 E407.52
G1 F1200 X107.9 Y107.9 Z3 E410.68
G1 F1200 X107.9 Y102.1 Z3 E411.84
G1 F1200 X108.5 Y101.5 Z3 E411.84
G1 F1200 X91.5 Y101.5 Z3 E415.24
G1 F1200 X91.5 Y108.5 Z3 E416.64
G1 F1200 X108.5 Y108.5 Z3 E420.04
G1 F1200 X108.5 Y101.5 Z3 E421.44
G1 F1200 X109.1 Y100.9 Z3 E421.44
G1 F1200 X90.9 Y100.9 Z3 E425.08
G1 F1200 X90.9 Y109.1 Z3 E426.72
G1 F1200 X109.1 Y109.1 Z3 E430.36
G1 F1200 X109.1 Y100.9 Z3 E432
G1 F1200 X109.7 Y100.3 Z3 E432
G1 F1200 X90.3 Y100.3 Z3 E435.88
G1 F1200 X90.3 Y109.7 Z3 E437.76
G1 F1200 X109.7 Y109.7 Z3 E441.64
G1 F1200 X109.7 Y100.3 Z3 E443.52
G1 F1200 X107.9 Y102.1 Z3.3 E443.52
G1 F1200 X92.1 Y102.1 Z3.3 E446.68
G1 F1200 X92.1 Y107.9 Z3.3 E447.84
G1 F1200 X107.9 Y107.9 Z3.3 E451
G1 F1200 X107.9 Y102.1 Z3.3 E452.16
G1 F1200 X108.5 Y101.5 Z3.3 E452.16
G1 F1200 X91.5 Y101.5 Z3.3 E455.56
G1 F1200 X91.5 Y108.5 Z3.3 E456.96
G1 F1200 X108.5 Y108.5 Z3.3 E460.36
G1 F1200 X108.5 Y101.5 Z3.3 E461.76
G1 F1200 X109.1 Y100.9 Z3.3 E461.76
G1 F1200 X90.9 Y100.9 Z3.3 E465.4
G1 F1200 X90.9 Y109.1 Z3.3 E467.04
G1 F1200 X109.1 Y109.1 Z3.3 E470.68
G1 F1200 X109.1 Y100.9 Z3.3 E472.32
G1 F1200 X109.7 Y100.3 Z3.3 E472.32
G1 F1200 X90.3 Y100.3 Z3.3 E476.2
G1 F1200 X90.3 Y109.7 Z3.3 E478.08
G1 F1200 X109.7 Y109.7 Z3.3 E481.96
G1 F1200 X109.7 Y100.3 Z3.3 E483.84
G1 F1200 X107.9 Y102.1 Z3.6 E483.84
G1 F1200 X92.1 Y102.1 Z3.6 E487
G1 F1200 X92.1 Y107.9 Z3.6 E488.16
G1 F1200 X107.9 Y107.9 Z3.6 E491.32
G1 F1200 X107.9 Y102.1 Z3.6 E492.48
G1 F1200 X108.5 Y101.5 Z3.6 E492.48
G1 F1200 X91.5 Y101.5 Z3.6 E495.88
G1 F1200 X91.5 Y108.5 Z3.6 E497.28
G1 F1200 X108.5 Y108.5 Z3.6 E500.68
G1 F1200 X108.5 Y101.5 Z3.6 E502.08
G1 F1200 X109.1 Y100.9 Z3.6 E502.08
G1 F1200 X90.9 Y100.9 Z3.6 E505.72
G1 F1200 X90.9 Y109.1 Z3.6 E507.36
G1 F1200 X109.1 Y109.1 Z3.6 E511
G1 F1200 X109.1 Y100.9 Z3.6 E512.64
G1 F1200 X109.7 Y100.3 Z3.6 E512.64
G1 F1200 X90.3 Y100.3 Z3.6 E516.52
G1 F1200 X90.3 Y109.7 Z3.6 E518.4
G1 F1200 X109.7 Y109.7 Z3.6 E522.28
G1 F1200 X109.7 Y100.3 Z3.6 E524.16
G1 F1200 X107.9 Y102.1 Z3.9 E524.16
G1 F1200 X92.1 Y102.1 Z3.9 E527.32
G1 F1200 X92.1 Y107.9 Z3.9 E528.48
G1 F1200 X107.9 Y107.9 Z3.9 E531.64
G1 F1200 X107.9 Y102.1 Z3.9 E532.8
G1 F1200 X108.5 Y101.5 Z3.9 E532.8
G1 F1200 X91.5 Y101.5 Z3.9 E536.2
G1 F1200 X91.5 Y108.5 Z3.9 E537.6
G1 F1200 X108.5 Y108.5 Z3.9 E541
G1 F1200 X108.5 Y101.5 Z3.9 E542.4
G1 F1200 X109.1 Y100.9 Z3.9 E542.4
G1 F1200 X90.9 Y100.9 Z3.9 E546.04
G1 F1200 X90.9 Y109.1 Z3.9 E547.68
G1 F1200 X109.1 Y109.1 Z3.9 E551.32
G1 F1200 X109.1 Y100.9 Z3.9 E552.96
G1 F1200 X109.7 Y100.3 Z3.9 E552.96
G1 F1200 X90.3 Y100.3 Z3.9 E556.84
G1 F1200 X90.3 Y109.7 Z3.9 E558.72
G1 F1200 X109.7 Y109.7 Z3.9 E562.6
G1 F1200 X109.7 Y100.3 Z3.9 E564.48
G1 F1200 X107.9 Y102.1 Z4.2 E564.48
G1 F1200 X92.1 Y102.1 Z4.2 E567.64
G1 F1200 X92.1 Y107.9 Z4.2 E568.8
G1 F1200 X107.9 Y107.9 Z4.2 E571.96
G1 F1200 X107.9 Y102.1 Z4.2 E573.12
G1 F1200 X108.5 Y101.5 Z4.2 E573.12
G1 F1200 X91.5 Y101.5 Z4.2 E576.52
G1 F1200 X91.5 Y108.5 Z4.2 E577.92
G1 F1200 X108.5 Y108.5 Z4.2 E581.32
G1 F1200 X108.5 Y101.5 Z4.2 E582.72
G1 F1200 X109.1 Y100.9 Z4.2 E582.72
G1 F1200 X90.9 Y100.9 Z4.2 E586.36
G1 F1200 X90.9 Y109.1 Z4.2 E588
G1 F1200 X109.1 Y109.1 Z4.2 E591.64
G1 F1200 X109.1 Y100.9 Z4.2 E593.28
G1 F1200 X109.7 Y100.3 Z4.2 E593.28
G1 F1200 X90.3 Y100.3 Z4.2 E597.16
G1 F1200 X90.3 Y109.7 Z4.2 E599.04
G1 F1200 X109.7 Y109.7 Z4.2 E602.92
G1 F1200 X109.7 Y100.3 Z4.2 E604.8
G1 F1200 X107.9 Y102.1 Z4.5 E604.8
G1 F1200 X92.1 Y102.1 Z4.5 E607.96
G1 F1200 X92.1 Y107.9 Z4.5 E609.12
G1 F1200 X107.9 Y107.9 Z4.5 E612.28
G1 F1200 X107.9 Y102.1 Z4.5 E613.44
G1 F1200 X108.5 Y101.5 Z4.5 E613.44
G1 F1200 X91.5 Y101.5 Z4.5 E616.84
G1 F1200 X91.5 Y108.5 Z4.5 E618.24
G1 F1200 X108.5 Y108.5 Z4.5 E621.64
G1 F1200 X108.5 Y101.5 Z4.5 E623.04
G1 F1200 X109.1 Y100.9 Z4.5 E623.04
G1 F1200 X90.9 Y100.9 Z4.5 E626.68
G1 F1200 X90.9 Y109.1 Z4.5 E628.32
G1 F1200 X109.1 Y109.1 Z4.5 E631.96
G1 F1200 X109.1 Y100.9 Z4.5 E633.6
G1 F1200 X109.7 Y100.3 Z4.5 E633.6
G1 F1200 X90.3 Y100.3 Z4.5 E637.48
G1 F1200 X90.3 Y109.7 Z4.5 E639.36
G1 F1200 X109.7 Y109.7 Z4.5 E643.24
G1 F1200 X109.7 Y100.3 Z4.5 E645.12
G1 F1200 X107.9 Y102.1 Z4.8 E645.12
G1 F1200 X92.1 Y102.1 Z4.8 E648.28
G1 F1200 X92.1 Y107.9 Z4.8 E649.44
G1 F1200 X107.9 Y107.9 Z4.8 E652.6
G1 F1200 X107.9 Y102.1 Z4.8 E653.76
G1 F1200 X108.5 Y101.5 Z4.8 E653.76
G1 F1200 X91.5 Y101.5 Z4.8 E657.16
G1 F1200 X91.5 Y108.5 Z4.8 E658.56
G1 F1200 X108.5 Y108.5 Z4.8 E661.96
G1 F1200 X108.5 Y101.5 Z4.8 E663.36
G1 F1200 X109.1 Y100.9 Z4.8 E663.36
G1 F1200 X90.9 Y100.9 Z4.8 E667
G1 F1200 X90.9 Y109.1 Z4.8 E668.64
G1 F1200 X109.1 Y109.1 Z4.8 E672.28
G1 F1200 X109.1 Y100.9 Z4.8 E673.92
G1 F1200 X109.7 Y100.3 Z4.8 E673.92
G1 F1200 X90.3 Y100.3 Z4.8 E677.8
G1 F1200 X90.3 Y109.7 Z4.8 E679.68
G1 F1200 X109.7 Y109.7 Z4.8 E683.56
G1 F1200 X109.7 Y100.3 Z4.8 E685.44
G1 F1200 X107.9 Y102.1 Z5.1 E685.44
G1 F1200 X92.1 Y102.1 Z5.1 E688.6
G1 F1200 X92.1 Y107.9 Z5.1 E689.76
G1 F1200 X107.9 Y107.9 Z5.1 E692.92
G1 F1200 X107.9 Y102.1 Z5.1 E694.08
G1 F1200 X108.5 Y101.5 Z5.1 E694.08
G1 F1200 X91.5 Y101.5 Z5.1 E697.48
G1 F1200 X91.5 Y108.5 Z5.1 E698.88
G1 F1200 X108.5 Y108.5 Z5.1 E702.28
G1 F1200 X108.5 Y101.5 Z5.1 E703.68
G1 F1200 X109.1 Y100.9 Z5.1 E703.68
G1 F1200 X90.9 Y100.9 Z5.1 E707.32
G1 F1200 X90.9 Y109.1 Z5.1 E708.96
G1 F1200 X109.1 Y109.1 Z5.1 E712.6
G1 F1200 X109.1 Y100.9 Z5.1 E714.24
G1 F1200 X109.7 Y100.3 Z5.1 E714.24
G1 F1200 X90.3 Y100.3 Z5.1 E718.12
G1 F1200 X90.3 Y109.7 Z5.1 E720
G1 F1200 X109.7 Y109.7 Z5.1 E723.88
G1 F1200 X109.7 Y100.3 Z5.1 E725.76
G1 F1200 X107.9 Y102.1 Z5.4 E725.76
G1 F1200 X92.1 Y102.1 Z5.4 E728.92
G1 F1200 X92.1 Y107.9 Z5.4 E730.08
G1 F1200 X107.9 Y107.9 Z5.4 E733.24
G1 F1200 X107.9 Y102.1 Z5.4 E734.4
G1 F1200 X108.5 Y101.5 Z5.4 E734.4
G1 F1200 X91.5 Y101.5 Z5.4 E737.8
G1 F1200 X91.5 Y108.5 Z5.4 E739.2
G1 F1200 X108.5 Y108.5 Z5.4 E742.6
G1 F1200 X108.5 Y101.5 Z5.4 E744
G1 F1200 X109.1 Y100.9 Z5.4 E744
G1 F1200 X90.9 Y100.9 Z5.4 E747.64
G1 F1200 X90.9 Y109.1 Z5.4 E749.28
G1 F1200 X109.1 Y109.1 Z5.4 E752.92
G1 F1200 X109.1 Y100.9 Z5.4 E754.56
G1 F1200 X109.7 Y100.3 Z5.4 E754.56
G1 F1200 X90.3 Y100.3 Z5.4 E758.44
G1 F1200 X90.3 Y109.7 Z5.4 E760.32
G1 F1200 X109.7 Y109.7 Z5.4 E764.2
G1 F1200 X109.7 Y100.3 Z5.4 E766.08
G1 F1200 X107.9 Y102.1 Z5.7 E766.08
G1 F1200 X92.1 Y102.1 Z5.7 E769.24
G1 F1200 X92.1 Y107.9 Z5.7 E770.4
G1 F1200 X107.9 Y107.9 Z5.7 E773.56
G1 F1200 X107.9 Y102.1 Z5.7 E774.72
G1 F1200 X108.5 Y101.5 Z5.7 E774.72
G1 F1200 X91.5 Y101.5 Z5.7 E778.12
G1 F1200 X91.5 Y108.5 Z5.7 E779.52
G1 F1200 X108.5 Y108.5 Z5.7 E782.92
G1 F1200 X108.5 Y101.5 Z5.7 E784.32
G1 F1200 X109.1 Y100.9 Z5.7 E784.32
G1 F1200 X90.9 Y100.9 Z5.7 E787.96
G1 F1200 X90.9 Y109.1 Z5.7 E789.6
G1 F1200 X109.1 Y109.1 Z5.7 E793.24
G1 F1200 X109.1 Y100.9 Z5.7 E794.88
G1 F1200 X109.7 Y100.3 Z5.7 E794.88
G1 F1200 X90.3 Y100.3 Z5.7 E798.76
G1 F1200 X90.3 Y109.7 Z5.7 E800.64
G1 F1200 X109.7 Y109.7 Z5.7 E804.52
G1 F1200 X109.7 Y100.3 Z5.7 E806.4
G1 F1200 X107.9 Y102.1 Z6 E806.4
G1 F1200 X92.1 Y102.1 Z6 E809.56
G1 F1200 X92.1 Y107.9 Z6 E810.72
G1 F1200 X107.9 Y107.9 Z6 E813.88
G1 F1200 X107.9 Y102.1 Z6 E815.04
G1 F1200 X108.5 Y101.5 Z6 E815.04
G1 F1200 X91.5 Y101.5 Z6 E818.44
G1 F1200 X91.5 Y108.5 Z6 E819.84
G1 F1200 X108.5 Y108.5 Z6 E823.24
G1 F1200 X108.5 Y101.5 Z6 E824.64
G1 F1200 X109.1 Y100.9 Z6 E824.64
G1 F1200 X90.9 Y100.9 Z6 E828.28
G1 F1200 X90.9 Y109.1 Z6 E829.92
G1 F1200 X109.1 Y109.1 Z6 E833.56
G1 F1200 X109.1 Y100.9 Z6 E835.2
G1 F1200 X109.7 Y100.3 Z6 E835.2
G1 F1200 X90.3 Y100.3 Z6 E839.08
G1 F1200 X90.3 Y109.7 Z6 E840.96
G1 F1200 X109.7 Y109.7 Z6 E844.84
G1 F1200 X109.7 Y100.3 Z6 E846.72
G1 F1200 X107.9 Y102.1 Z6.3 E846.72
G1 F1200 X92.1 Y102.1 Z6.3 E849.88
G1 F1200 X92.1 Y107.9 Z6.3 E851.04
G1 F1200 X107.9 Y107.9 Z6.3 E854.2
G1 F1200 X107.9 Y102.1 Z6.3 E855.36
G1 F1200 X108.5 Y101.5 Z6.3 E855.36
G1 F1200 X91.5 Y101.5 Z6.3 E858.76
G1 F1200 X91.5 Y108.5 Z6.3 E860.16
G1 F1200 X108.5 Y108.5 Z6.3 E863.56
G1 F1200 X108.5 Y101.5 Z6.3 E864.96
G1 F1200 X109.1 Y100.9 Z6.3 E864.96
G1 F1200 X90.9 Y100.9 Z6.3 E868.6
G1 F1200 X90.9 Y109.1 Z6.3 E870.24
G1 F1200 X109.1 Y109.1 Z6.3 E873.88
G1 F1200 X109.1 Y100.9 Z6.3 E875.52
G1 F1200 X109.7 Y100.3 Z6.3 E875.52
G1 F1200 X90.3 Y100.3 Z6.3 E879.4
G1 F1200 X90.3 Y109.7 Z6.3 E881.28
G1 F1200 X109.7 Y109.7 Z6.3 E885.16
