;FLAVOR:UltiGCode
;TIME:401
;MATERIAL:421
;MATERIAL2:0
;NOZZLE_DIAMETER:0.600000
;NOZZLE_DIAMETER2:0.600000
;Layer count: 41
;LAYER:0
M107
G0 F9000 X100 Y100 Z0.180
G0 X100.105 Y101.376
G1 F1200 X115.7 Y94.3 Z0.180685 E0
G1 F1200 X115.7 Y115.7 Z0.180685 E4.28
G1 F1200 X84.3 Y115.7 Z0.180685 E10.56
G1 F1200 X84.3 Y94.3 Z0.180685 E14.84
G1 F1200 X115.7 Y94.3 Z0.180685 E21.12
G1 F1200 X115.1 Y94.9 Z0.180685 E21.12
G1 F1200 X115.1 Y115.1 Z0.180685 E25.16
G1 F1200 X84.9 Y115.1 Z0.180685 E31.2
G1 F1200 X84.9 Y94.9 Z0.180685 E35.24
G1 F1200 X115.1 Y94.9 Z0.180685 E41.28
G1 F1200 X114.5 Y95.5 Z0.180685 E41.28
G1 F1200 X114.5 Y114.5 Z0.180685 E45.08
G1 F1200 X85.5 Y114.5 Z0.180685 E50.88
G1 F1200 X85.5 Y95.5 Z0.180685 E54.68
G1 F1200 X114.5 Y95.5 Z0.180685 E60.48
G1 F1200 X113.9 Y96.1 Z0.180685 E60.48
G1 F1200 X113.9 Y113.9 Z0.180685 E64.04
G1 F1200 X86.1 Y113.9 Z0.180685 E69.6
G1 F1200 X86.1 Y96.1 Z0.180685 E73.16
G1 F1200 X113.9 Y96.1 Z0.180685 E78.72
G1 F1200 X113.3 Y96.7 Z0.180685 E78.72
G1 F1200 X113.3 Y113.3 Z0.180685 E82.04
G1 F1200 X86.7 Y113.3 Z0.180685 E87.36
G1 F1200 X86.7 Y96.7 Z0.180685 E90.68
G1 F1200 X113.3 Y96.7 Z0.180685 E96
G1 F1200 X112.7 Y97.3 Z0.180685 E96
G1 F1200 X112.7 Y112.7 Z0.180685 E99.08
G1 F1200 X87.3 Y112.7 Z0.180685 E104.16
G1 F1200 X87.3 Y97.3 Z0.180685 E107.24
G1 F1200 X112.7 Y97.3 Z0.180685 E112.32
G1 F1200 X112.1 Y97.9 Z0.180685 E112.32
G1 F1200 X112.1 Y112.1 Z0.180685 E115.16
G1 F1200 X87.9 Y112.1 Z0.180685 E120
G1 F1200 X87.9 Y97.9 Z0.180685 E122.84
G1 F1200 X112.1 Y97.9 Z0.180685 E127.68
G1 F1200 X111.5 Y98.5 Z0.180685 E127.68
G1 F1200 X111.5 Y111.5 Z0.180685 E130.28
G1 F1200 X88.5 Y111.5 Z0.180685 E134.88
G1 F1200 X88.5 Y98.5 Z0.180685 E137.48
G1 F1200 X111.5 Y98.5 Z0.180685 E142.08
G1 F1200 X110.9 Y99.1 Z0.180685 E142.08
G1 F1200 X110.9 Y110.9 Z0.180685 E144.44
G1 F1200 X89.1 Y110.9 Z0.180685 E148.8
G1 F1200 X89.1 Y99.1 Z0.180685 E151.16
G1 F1200 X110.9 Y99.1 Z0.180685 E155.52
G1 F1200 X110.3 Y99.7 Z0.180685 E155.52
G1 F1200 X110.3 Y110.3 Z0.180685 E157.64
G1 F1200 X89.7 Y110.3 Z0.180685 E161.76
G1 F1200 X89.7 Y99.7 Z0.180685 E163.88
G1 F1200 X110.3 Y99.7 Z0.180685 E168
G1 F1200 X92.1 Y107.9 Z0 E168
G1 F1200 X107.9 Y107.9 Z0 E171.16
G1 F1200 X107.9 Y102.1 Z0 E172.32
G1 F1200 X92.1 Y102.1 Z0 E175.48
G1 F1200 X92.1 Y107.9 Z0 E176.64
G1 F1200 X92.065 Y108.5 Z0 E176.64
G1 F1200 X108.08 Y108.486 Z0 E179.843001
G1 F1200 X108.216 Y108.447 Z0 E179.871298
G1 F1200 X108.352 Y108.352 Z0 E179.904476
G1 F1200 X108.445 Y108.222 Z0 E179.936445
G1 F1200 X108.486 Y108.08 Z0 E179.966005
G1 F1200 X108.5 Y107.935 Z0 E179.995139
G1 F1200 X108.486 Y101.92 Z0 E181.198143
G1 F1200 X108.447 Y101.784 Z0 E181.226439
G1 F1200 X108.414 Y101.726 Z0 E181.239785
G1 F1200 X108.352 Y101.648 Z0 E181.259713
G1 F1200 X108.222 Y101.555 Z0 E181.291681
G1 F1200 X108.08 Y101.514 Z0 E181.321241
G1 F1200 X107.935 Y101.5 Z0 E181.350376
G1 F1200 X91.92 Y101.514 Z0 E184.553377
G1 F1200 X91.784 Y101.553 Z0 E184.581674
G1 F1200 X91.648 Y101.648 Z0 E184.614853
G1 F1200 X91.556 Y101.777 Z0 E184.646542
G1 F1200 X91.514 Y101.92 Z0 E184.67635
G1 F1200 X91.5 Y102.065 Z0 E184.705485
G1 F1200 X91.514 Y108.08 Z0 E185.908488
G1 F1200 X91.553 Y108.216 Z0 E185.936784
G1 F1200 X91.648 Y108.352 Z0 E185.969963
G1 F1200 X91.778 Y108.445 Z0 E186.001931
G1 F1200 X91.92 Y108.486 Z0 E186.031491
G1 F1200 X92.065 Y108.5 Z0 E186.060626
G1 F1200 X92.041 Y109.1 Z0 E186.060626
G1 F1200 X107.959 Y109.1 Z0 E189.244226
G1 F1200 X108.196 Y109.078 Z0 E189.29183
G1 F1200 X108.423 Y109.013 Z0 E189.339054
G1 F1200 X108.607 Y108.915 Z0 E189.380749
G1 F1200 X108.69 Y108.854 Z0 E189.40135
G1 F1200 X108.777 Y108.777 Z0 E189.424586
G1 F1200 X108.854 Y108.69 Z0 E189.447822
G1 F1200 X108.915 Y108.607 Z0 E189.468423
G1 F1200 X109.013 Y108.423 Z0 E189.510117
G1 F1200 X109.078 Y108.196 Z0 E189.557342
G1 F1200 X109.1 Y107.959 Z0 E189.604945
G1 F1200 X109.1 Y102.041 Z0 E190.788545
G1 F1200 X109.078 Y101.804 Z0 E190.836149
G1 F1200 X109.013 Y101.577 Z0 E190.883374
G1 F1200 X108.915 Y101.393 Z0 E190.925068
G1 F1200 X108.854 Y101.31 Z0 E190.945669
G1 F1200 X108.777 Y101.223 Z0 E190.968905
G1 F1200 X108.69 Y101.146 Z0 E190.992141
G1 F1200 X108.607 Y101.085 Z0 E191.012742
G1 F1200 X108.423 Y100.987 Z0 E191.054436
G1 F1200 X108.196 Y100.922 Z0 E191.101661
G1 F1200 X107.959 Y100.9 Z0 E191.149265
G1 F1200 X92.041 Y100.9 Z0 E194.332865
G1 F1200 X91.804 Y100.922 Z0 E194.380468
G1 F1200 X91.577 Y100.987 Z0 E194.427693
G1 F1200 X91.393 Y101.085 Z0 E194.469387
G1 F1200 X91.31 Y101.146 Z0 E194.489988
G1 F1200 X91.223 Y101.223 Z0 E194.513224
G1 F1200 X91.146 Y101.31 Z0 E194.53646
G1 F1200 X91.085 Y101.393 Z0 E194.557061
G1 F1200 X90.987 Y101.577 Z0 E194.598756
G1 F1200 X90.922 Y101.804 Z0 E194.64598
G1 F1200 X90.9 Y102.041 Z0 E194.693584
G1 F1200 X90.9 Y107.959 Z0 E195.877184
G1 F1200 X90.922 Y108.196 Z0 E195.924788
G1 F1200 X90.987 Y108.423 Z0 E195.972012
G1 F1200 X91.085 Y108.607 Z0 E196.013706
G1 F1200 X91.146 Y108.69 Z0 E196.034307
G1 F1200 X91.223 Y108.777 Z0 E196.057544
G1 F1200 X91.31 Y108.854 Z0 E196.08078
G1 F1200 X91.393 Y108.915 Z0 E196.101381
G1 F1200 X91.577 Y109.013 Z0 E196.143075
G1 F1200 X91.804 Y109.078 Z0 E196.190299
G1 F1200 X92.041 Y109.1 Z0 E196.237903
G1 F1200 X92.017 Y109.7 Z0 E196.237903
G1 F1200 X107.983 Y109.7 Z0 E199.431103
G1 F1200 X108.31 Y109.669 Z0 E199.496796
G1 F1200 X108.631 Y109.577 Z0 E199.563581
G1 F1200 X108.933 Y109.419 Z0 E199.631748
G1 F1200 X109.202 Y109.202 Z0 E199.700871
G1 F1200 X109.419 Y108.933 Z0 E199.769994
G1 F1200 X109.577 Y108.631 Z0 E199.838161
G1 F1200 X109.669 Y108.31 Z0 E199.904946
G1 F1200 X109.7 Y107.983 Z0 E199.970639
G1 F1200 X109.7 Y102.017 Z0 E201.163839
G1 F1200 X109.669 Y101.69 Z0 E201.229532
G1 F1200 X109.577 Y101.369 Z0 E201.296317
G1 F1200 X109.419 Y101.067 Z0 E201.364484
G1 F1200 X109.202 Y100.798 Z0 E201.433607
G1 F1200 X108.933 Y100.581 Z0 E201.50273
G1 F1200 X108.631 Y100.423 Z0 E201.570897
G1 F1200 X108.31 Y100.331 Z0 E201.637681
G1 F1200 X107.983 Y100.3 Z0 E201.703375
G1 F1200 X92.017 Y100.3 Z0 E204.896575
G1 F1200 X91.69 Y100.331 Z0 E204.962268
G1 F1200 X91.369 Y100.423 Z0 E205.029053
G1 F1200 X91.067 Y100.581 Z0 E205.097219
G1 F1200 X90.798 Y100.798 Z0 E205.166343
G1 F1200 X90.581 Y101.067 Z0 E205.235466
G1 F1200 X90.423 Y101.369 Z0 E205.303633
G1 F1200 X90.331 Y101.69 Z0 E205.370417
G1 F1200 X90.3 Y102.017 Z0 E205.43611
G1 F1200 X90.3 Y107.983 Z0 E206.62931
G1 F1200 X90.331 Y108.31 Z0 E206.695004
G1 F1200 X90.423 Y108.631 Z0 E206.761788
G1 F1200 X90.581 Y108.933 Z0 E206.829955
G1 F1200 X90.798 Y109.202 Z0 E206.899078
G1 F1200 X91.067 Y109.419 Z0 E206.968201
G1 F1200 X91.369 Y109.577 Z0 E207.036368
G1 F1200 X91.69 Y109.669 Z0 E207.103153
G1 F1200 X92.017 Y109.7 Z0 E207.168846
G1 F1200 X92.1 Y107.9 Z0.3 E207.168846
G1 F1200 X107.9 Y107.9 Z0.3 E210.328846
G1 F1200 X107.9 Y102.1 Z0.3 E211.488846
G1 F1200 X92.1 Y102.1 Z0.3 E214.648846
G1 F1200 X92.1 Y107.9 Z0.3 E215.808846
G1 F1200 X92.065 Y108.5 Z0.3 E215.808846
G1 F1200 X108.08 Y108.486 Z0.3 E219.011847
G1 F1200 X108.216 Y108.447 Z0.3 E219.040144
G1 F1200 X108.352 Y108.352 Z0.3 E219.073323
G1 F1200 X108.445 Y108.222 Z0.3 E219.105291
G1 F1200 X108.486 Y108.08 Z0.3 E219.134851
G1 F1200 X108.5 Y107.935 Z0.3 E219.163986
G1 F1200 X108.486 Y101.92 Z0.3 E220.366989
G1 F1200 X108.447 Y101.784 Z0.3 E220.395285
G1 F1200 X108.414 Y101.726 Z0.3 E220.408631
G1 F1200 X108.352 Y101.648 Z0.3 E220.428559
G1 F1200 X108.222 Y101.555 Z0.3 E220.460527
G1 F1200 X108.08 Y101.514 Z0.3 E220.490088
G1 F1200 X107.935 Y101.5 Z0.3 E220.519222
G1 F1200 X91.92 Y101.514 Z0.3 E223.722224
G1 F1200 X91.784 Y101.553 Z0.3 E223.75052
G1 F1200 X91.648 Y101.648 Z0.3 E223.783699
G1 F1200 X91.556 Y101.777 Z0.3 E223.815388
G1 F1200 X91.514 Y101.92 Z0.3 E223.845196
G1 F1200 X91.5 Y102.065 Z0.3 E223.874331
G1 F1200 X91.514 Y108.08 Z0.3 E225.077334
G1 F1200 X91.553 Y108.216 Z0.3 E225.10563
G1 F1200 X91.648 Y108.352 Z0.3 E225.138809
G1 F1200 X91.778 Y108.445 Z0.3 E225.170777
G1 F1200 X91.92 Y108.486 Z0.3 E225.200338
G1 F1200 X92.065 Y108.5 Z0.3 E225.229472
G1 F1200 X92.041 Y109.1 Z0.3 E225.229472
G1 F1200 X107.959 Y109.1 Z0.3 E228.413072
G1 F1200 X108.196 Y109.078 Z0.3 E228.460676
G1 F1200 X108.423 Y109.013 Z0.3 E228.507901
G1 F1200 X108.607 Y108.915 Z0.3 E228.549595
G1 F1200 X108.69 Y108.854 Z0.3 E228.570196
G1 F1200 X108.777 Y108.777 Z0.3 E228.593432
G1 F1200 X108.854 Y108.69 Z0.3 E228.616668
G1 F1200 X108.915 Y108.607 Z0.3 E228.637269
G1 F1200 X109.013 Y108.423 Z0.3 E228.678963
G1 F1200 X109.078 Y108.196 Z0.3 E228.726188
G1 F1200 X109.1 Y107.959 Z0.3 E228.773792
G1 F1200 X109.1 Y102.041 Z0.3 E229.957392
G1 F1200 X109.078 Y101.804 Z0.3 E230.004995
G1 F1200 X109.013 Y101.577 Z0.3 E230.05222
G1 F1200 X108.915 Y101.393 Z0.3 E230.093914
G1 F1200 X108.854 Y101.31 Z0.3 E230.114515
G1 F1200 X108.777 Y101.223 Z0.3 E230.137751
G1 F1200 X108.69 Y101.146 Z0.3 E230.160987
G1 F1200 X108.607 Y101.085 Z0.3 E230.181588
G1 F1200 X108.423 Y100.987 Z0.3 E230.223283
G1 F1200 X108.196 Y100.922 Z0.3 E230.270507
G1 F1200 X107.959 Y100.9 Z0.3 E230.318111
G1 F1200 X92.041 Y100.9 Z0.3 E233.501711
G1 F1200 X91.804 Y100.922 Z0.3 E233.549315
G1 F1200 X91.577 Y100.987 Z0.3 E233.596539
G1 F1200 X91.393 Y101.085 Z0.3 E233.638233
G1 F1200 X91.31 Y101.146 Z0.3 E233.658834
G1 F1200 X91.223 Y101.223 Z0.3 E233.68207
G1 F1200 X91.146 Y101.31 Z0.3 E233.705307
G1 F1200 X91.085 Y101.393 Z0.3 E233.725908
G1 F1200 X90.987 Y101.577 Z0.3 E233.767602
G1 F1200 X90.922 Y101.804 Z0.3 E233.814826
G1 F1200 X90.9 Y102.041 Z0.3 E233.86243
G1 F1200 X90.9 Y107.959 Z0.3 E235.04603
G1 F1200 X90.922 Y108.196 Z0.3 E235.093634
G1 F1200 X90.987 Y108.423 Z0.3 E235.140858
G1 F1200 X91.085 Y108.607 Z0.3 E235.182553
G1 F1200 X91.146 Y108.69 Z0.3 E235.203154
G1 F1200 X91.223 Y108.777 Z0.3 E235.22639
G1 F1200 X91.31 Y108.854 Z0.3 E235.249626
G1 F1200 X91.393 Y108.915 Z0.3 E235.270227
G1 F1200 X91.577 Y109.013 Z0.3 E235.311921
G1 F1200 X91.804 Y109.078 Z0.3 E235.359146
G1 F1200 X92.041 Y109.1 Z0.3 E235.406749
G1 F1200 X92.017 Y109.7 Z0.3 E235.406749
G1 F1200 X107.983 Y109.7 Z0.3 E238.599949
G1 F1200 X108.31 Y109.669 Z0.3 E238.665643
G1 F1200 X108.631 Y109.577 Z0.3 E238.732427
G1 F1200 X108.933 Y109.419 Z0.3 E238.800594
G1 F1200 X109.202 Y109.202 Z0.3 E238.869717
G1 F1200 X109.419 Y108.933 Z0.3 E238.93884
G1 F1200 X109.577 Y108.631 Z0.3 E239.007007
G1 F1200 X109.669 Y108.31 Z0.3 E239.073792
G1 F1200 X109.7 Y107.983 Z0.3 E239.139485
G1 F1200 X109.7 Y102.017 Z0.3 E240.332685
G1 F1200 X109.669 Y101.69 Z0.3 E240.398378
G1 F1200 X109.577 Y101.369 Z0.3 E240.465163
G1 F1200 X109.419 Y101.067 Z0.3 E240.53333
G1 F1200 X109.202 Y100.798 Z0.3 E240.602453
G1 F1200 X108.933 Y100.581 Z0.3 E240.671576
G1 F1200 X108.631 Y100.423 Z0.3 E240.739743
G1 F1200 X108.31 Y100.331 Z0.3 E240.806528
G1 F1200 X107.983 Y100.3 Z0.3 E240.872221
G1 F1200 X92.017 Y100.3 Z0.3 E244.065421
G1 F1200 X91.69 Y100.331 Z0.3 E244.131114
G1 F1200 X91.369 Y100.423 Z0.3 E244.197899
G1 F1200 X91.067 Y100.581 Z0.3 E244.266066
G1 F1200 X90.798 Y100.798 Z0.3 E244.335189
G1 F1200 X90.581 Y101.067 Z0.3 E244.404312
G1 F1200 X90.423 Y101.369 Z0.3 E244.472479
G1 F1200 X90.331 Y101.69 Z0.3 E244.539263
G1 F1200 X90.3 Y102.017 Z0.3 E244.604957
G1 F1200 X90.3 Y107.983 Z0.3 E245.798157
G1 F1200 X90.331 Y108.31 Z0.3 E245.86385
G1 F1200 X90.423 Y108.631 Z0.3 E245.930635
G1 F1200 X90.581 Y108.933 Z0.3 E245.998802
G1 F1200 X90.798 Y109.202 Z0.3 E246.067925
G1 F1200 X91.067 Y109.419 Z0.3 E246.137048
G1 F1200 X91.369 Y109.577 Z0.3 E246.205215
G1 F1200 X91.69 Y109.669 Z0.3 E246.271999
G1 F1200 X92.017 Y109.7 Z0.3 E246.337692
G1 F1200 X92.1 Y107.9 Z0.6 E246.337692
G1 F1200 X107.9 Y107.9 Z0.6 E249.497692
G1 F1200 X107.9 Y102.1 Z0.6 E250.657692
G1 F1200 X92.1 Y102.1 Z0.6 E253.817692
G1 F1200 X92.1 Y107.9 Z0.6 E254.977692
G1 F1200 X92.065 Y108.5 Z0.6 E254.977692
G1 F1200 X108.08 Y108.486 Z0.6 E258.180694
G1 F1200 X108.216 Y108.447 Z0.6 E258.20899
G1 F1200 X108.352 Y108.352 Z0.6 E258.242169
G1 F1200 X108.445 Y108.222 Z0.6 E258.274137
G1 F1200 X108.486 Y108.08 Z0.6 E258.303697
G1 F1200 X108.5 Y107.935 Z0.6 E258.332832
G1 F1200 X108.486 Y101.92 Z0.6 E259.535835
G1 F1200 X108.447 Y101.784 Z0.6 E259.564132
G1 F1200 X108.414 Y101.726 Z0.6 E259.577478
G1 F1200 X108.352 Y101.648 Z0.6 E259.597406
G1 F1200 X108.222 Y101.555 Z0.6 E259.629374
G1 F1200 X108.08 Y101.514 Z0.6 E259.658934
G1 F1200 X107.935 Y101.5 Z0.6 E259.688069
G1 F1200 X91.92 Y101.514 Z0.6 E262.89107
G1 F1200 X91.784 Y101.553 Z0.6 E262.919366
G1 F1200 X91.648 Y101.648 Z0.6 E262.952545
G1 F1200 X91.556 Y101.777 Z0.6 E262.984234
G1 F1200 X91.514 Y101.92 Z0.6 E263.014042
G1 F1200 X91.5 Y102.065 Z0.6 E263.043177
G1 F1200 X91.514 Y108.08 Z0.6 E264.24618
G1 F1200 X91.553 Y108.216 Z0.6 E264.274477
G1 F1200 X91.648 Y108.352 Z0.6 E264.307656
G1 F1200 X91.778 Y108.445 Z0.6 E264.339624
G1 F1200 X91.92 Y108.486 Z0.6 E264.369184
G1 F1200 X92.065 Y108.5 Z0.6 E264.398319
G1 F1200 X92.041 Y109.1 Z0.6 E264.398319
G1 F1200 X107.959 Y109.1 Z0.6 E267.581919
G1 F1200 X108.196 Y109.078 Z0.6 E267.629522
G1 F1200 X108.423 Y109.013 Z0.6 E267.676747
G1 F1200 X108.607 Y108.915 Z0.6 E267.718441
G1 F1200 X108.69 Y108.854 Z0.6 E267.739042
G1 F1200 X108.777 Y108.777 Z0.6 E267.762278
G1 F1200 X108.854 Y108.69 Z0.6 E267.785514
G1 F1200 X108.915 Y108.607 Z0.6 E267.806115
G1 F1200 X109.013 Y108.423 Z0.6 E267.84781
G1 F1200 X109.078 Y108.196 Z0.6 E267.895034
G1 F1200 X109.1 Y107.959 Z0.6 E267.942638
G1 F1200 X109.1 Y102.041 Z0.6 E269.126238
G1 F1200 X109.078 Y101.804 Z0.6 E269.173842
G1 F1200 X109.013 Y101.577 Z0.6 E269.221066
G1 F1200 X108.915 Y101.393 Z0.6 E269.26276
G1 F1200 X108.854 Y101.31 Z0.6 E269.283361
G1 F1200 X108.777 Y101.223 Z0.6 E269.306597
G1 F1200 X108.69 Y101.146 Z0.6 E269.329834
G1 F1200 X108.607 Y101.085 Z0.6 E269.350435
G1 F1200 X108.423 Y100.987 Z0.6 E269.392129
G1 F1200 X108.196 Y100.922 Z0.6 E269.439353
G1 F1200 X107.959 Y100.9 Z0.6 E269.486957
G1 F1200 X92.041 Y100.9 Z0.6 E272.670557
G1 F1200 X91.804 Y100.922 Z0.6 E272.718161
G1 F1200 X91.577 Y100.987 Z0.6 E272.765385
G1 F1200 X91.393 Y101.085 Z0.6 E272.80708
G1 F1200 X91.31 Y101.146 Z0.6 E272.827681
G1 F1200 X91.223 Y101.223 Z0.6 E272.850917
G1 F1200 X91.146 Y101.31 Z0.6 E272.874153
G1 F1200 X91.085 Y101.393 Z0.6 E272.894754
G1 F1200 X90.987 Y101.577 Z0.6 E272.936448
G1 F1200 X90.922 Y101.804 Z0.6 E272.983673
G1 F1200 X90.9 Y102.041 Z0.6 E273.031276
G1 F1200 X90.9 Y107.959 Z0.6 E274.214876
G1 F1200 X90.922 Y108.196 Z0.6 E274.26248
G1 F1200 X90.987 Y108.423 Z0.6 E274.309705
G1 F1200 X91.085 Y108.607 Z0.6 E274.351399
G1 F1200 X91.146 Y108.69 Z0.6 E274.372
G1 F1200 X91.223 Y108.777 Z0.6 E274.395236
G1 F1200 X91.31 Y108.854 Z0.6 E274.418472
G1 F1200 X91.393 Y108.915 Z0.6 E274.439073
G1 F1200 X91.577 Y109.013 Z0.6 E274.480767
G1 F1200 X91.804 Y109.078 Z0.6 E274.527992
G1 F1200 X92.041 Y109.1 Z0.6 E274.575596
G1 F1200 X92.017 Y109.7 Z0.6 E274.575596
G1 F1200 X107.983 Y109.7 Z0.6 E277.768796
G1 F1200 X108.31 Y109.669 Z0.6 E277.834489
G1 F1200 X108.631 Y109.577 Z0.6 E277.901274
G1 F1200 X108.933 Y109.419 Z0.6 E277.96944
G1 F1200 X109.202 Y109.202 Z0.6 E278.038564
G1 F1200 X109.419 Y108.933 Z0.6 E278.107687
G1 F1200 X109.577 Y108.631 Z0.6 E278.175853
G1 F1200 X109.669 Y108.31 Z0.6 E278.242638
G1 F1200 X109.7 Y107.983 Z0.6 E278.308331
G1 F1200 X109.7 Y102.017 Z0.6 E279.501531
G1 F1200 X109.669 Y101.69 Z0.6 E279.567225
G1 F1200 X109.577 Y101.369 Z0.6 E279.634009
G1 F1200 X109.419 Y101.067 Z0.6 E279.702176
G1 F1200 X109.202 Y100.798 Z0.6 E279.771299
G1 F1200 X108.933 Y100.581 Z0.6 E279.840422
G1 F1200 X108.631 Y100.423 Z0.6 E279.908589
G1 F1200 X108.31 Y100.331 Z0.6 E279.975374
G1 F1200 X107.983 Y100.3 Z0.6 E280.041067
G1 F1200 X92.017 Y100.3 Z0.6 E283.234267
