;FLAVOR:UltiGCode
;TIME:401
;MATERIAL:421
;MATERIAL2:0
;NOZZLE_DIAMETER:0.600000
;NOZZLE_DIAMETER2:0.600000
;Layer count: 41
;LAYER:0
M107
G0 F9000 X100 Y100 Z0.180
G0 X100.105 Y101.376
G1 F1200 X107.9 Y102.1 Z0 E0
G1 F1200 X92.1 Y102.1 Z0 E3.16
G1 F1200 X92.1 Y107.9 Z0 E4.32
G1 F1200 X107.9 Y107.9 Z0 E7.48
G1 F1200 X107.9 Y102.1 Z0 E8.64
G1 F1200 X107.9 Y102.1 Z0.3 E8.64
G1 F1200 X92.1 Y102.1 Z0.3 E11.8
G1 F1200 X92.1 Y107.9 Z0.3 E12.96
G1 F1200 X107.9 Y107.9 Z0.3 E16.12
G1 F1200 X107.9 Y102.1 Z0.3 E17.28
G1 F1200 X107.9 Y102.1 Z0.6 E17.28
G1 F1200 X92.1 Y102.1 Z0.6 E20.44
G1 F1200 X92.1 Y107.9 Z0.6 E21.6
G1 F1200 X107.9 Y107.9 Z0.6 E24.76
G1 F1200 X107.9 Y102.1 Z0.6 E25.92
G1 F1200 X108.5 Y101.5 Z0 E25.92
G1 F1200 X91.5 Y101.5 Z0 E29.32
G1 F1200 X91.5 Y108.5 Z0 E30.72
G1 F1200 X108.5 Y108.5 Z0 E34.12
G1 F1200 X108.5 Y101.5 Z0 E35.52
G1 F1200 X108.5 Y101.5 Z0.3 E35.52
G1 F1200 X91.5 Y101.5 Z0.3 E38.92
G1 F1200 X91.5 Y108.5 Z0.3 E40.32
G1 F1200 X108.5 Y108.5 Z0.3 E43.72
G1 F1200 X108.5 Y101.5 Z0.3 E45.12
G1 F1200 X108.5 Y101.5 Z0.6 E45.12
G1 F1200 X91.5 Y101.5 Z0.6 E48.52
G1 F1200 X91.5 Y108.5 Z0.6 E49.92
G1 F1200 X108.5 Y108.5 Z0.6 E53.32
G1 F1200 X108.5 Y101.5 Z0.6 E54.72
G1 F1200 X109.1 Y100.9 Z0 E54.72
G1 F1200 X90.9 Y100.9 Z0 E58.36
G1 F1200 X90.9 Y109.1 Z0 E60
G1 F1200 X109.1 Y109.1 Z0 E63.64
G1 F1200 X109.1 Y100.9 Z0 E65.28
G1 F1200 X109.1 Y100.9 Z0.3 E65.28
G1 F1200 X90.9 Y100.9 Z0.3 E68.92
G1 F1200 X90.9 Y109.1 Z0.3 E70.56
G1 F1200 X109.1 Y109.1 Z0.3 E74.2
G1 F1200 X109.1 Y100.9 Z0.3 E75.84
G1 F1200 X109.1 Y100.9 Z0.6 E75.84
G1 F1200 X90.9 Y100.9 Z0.6 E79.48
G1 F1200 X90.9 Y109.1 Z0.6 E81.12
G1 F1200 X109.1 Y109.1 Z0.6 E84.76
G1 F1200 X109.1 Y100.9 Z0.6 E86.4
G1 F1200 X109.7 Y100.3 Z0 E86.4
G1 F1200 X90.3 Y100.3 Z0 E90.28
G1 F1200 X90.3 Y109.7 Z0 E92.16
G1 F1200 X109.7 Y109.7 Z0 E96.04
G1 F1200 X109.7 Y100.3 Z0 E97.92
G1 F1200 X109.7 Y100.3 Z0.3 E97.92
G1 F1200 X90.3 Y100.3 Z0.3 E101.8
G1 F1200 X90.3 Y109.7 Z0.3 E103.68
G1 F1200 X109.7 Y109.7 Z0.3 E107.56
G1 F1200 X109.7 Y100.3 Z0.3 E109.44
G1 F1200 X109.7 Y100.3 Z0.6 E109.44
G1 F1200 X90.3 Y100.3 Z0.6 E113.32
G1 F1200 X90.3 Y109.7 Z0.6 E115.2
G1 F1200 X109.7 Y109.7 Z0.6 E119.08
G1 F1200 X109.7 Y100.3 Z0.6 E120.96
G1 F1200 X107.9 Y102.1 Z0 E0
G1 F1200 X106.55 Y102.1 Z1 E0.336006
G1 F1200 X105.2 Y102.1 Z0 E0.672012
G1 F1200 X103.85 Y102.1 Z1 E1.008018
G1 F1200 X102.5 Y102.1 Z0 E1.344024
G1 F1200 X101.15 Y102.1 Z1 E1.68003
G1 F1200 X99.8 Y102.1 Z0 E2.016036
G1 F1200 X98.45 Y102.1 Z1 E2.352042
G1 F1200 X97.1 Y102.1 Z0 E2.688048
G1 F1200 X95.75 Y102.1 Z1 E3.024054
G1 F1200 X94.4 Y102.1 Z0 E3.36006
G1 F1200 X93.05 Y102.1 Z1 E3.696065
G1 F1200 X92.1 Y102.5 Z0 E3.983294
G1 F1200 X92.1 Y103.85 Z1 E4.3193
G1 F1200 X92.1 Y105.2 Z0 E4.655306
G1 F1200 X92.1 Y106.55 Z1 E4.991311
G1 F1200 X92.1 Y107.9 Z0 E5.327317
G1 F1200 X93.45 Y107.9 Z1 E5.663323
G1 F1200 X94.8 Y107.9 Z0 E5.999329
G1 F1200 X96.15 Y107.9 Z1 E6.335335
G1 F1200 X97.5 Y107.9 Z0 E6.671341
G1 F1200 X98.85 Y107.9 Z1 E7.007347
G1 F1200 X100.2 Y107.9 Z0 E7.343353
G1 F1200 X101.55 Y107.9 Z1 E7.679359
G1 F1200 X102.9 Y107.9 Z0 E8.015365
G1 F1200 X104.25 Y107.9 Z1 E8.351371
G1 F1200 X105.6 Y107.9 Z0 E8.687377
G1 F1200 X106.95 Y107.9 Z1 E9.023383
G1 F1200 X107.9 Y107.5 Z0 E9.310611
G1 F1200 X107.9 Y106.15 Z1 E9.646617
G1 F1200 X107.9 Y104.8 Z0 E9.982623
G1 F1200 X107.9 Y103.45 Z1 E10.318629
G1 F1200 X107.9 Y102.1 Z0 E10.654635
G1 F1200 X108.5 Y101.5 Z0 E10.654635
G1 F1200 X107.088235 Y101.5 Z1 E11.000645
G1 F1200 X105.676471 Y101.5 Z0 E11.346656
G1 F1200 X104.264706 Y101.5 Z1 E11.692666
G1 F1200 X102.852941 Y101.5 Z0 E12.038676
G1 F1200 X101.441176 Y101.5 Z1 E12.384687
G1 F1200 X100.029412 Y101.5 Z0 E12.730697
G1 F1200 X98.617647 Y101.5 Z1 E13.076707
G1 F1200 X97.205882 Y101.5 Z0 E13.422718
G1 F1200 X95.794118 Y101.5 Z1 E13.768728
G1 F1200 X94.382353 Y101.5 Z0 E14.114739
G1 F1200 X92.970588 Y101.5 Z1 E14.460749
G1 F1200 X91.558824 Y101.5 Z0 E14.806759
G1 F1200 X91.5 Y102.852941 Z1 E15.143444
G1 F1200 X91.5 Y104.264706 Z0 E15.489454
G1 F1200 X91.5 Y105.676471 Z1 E15.835465
G1 F1200 X91.5 Y107.088235 Z0 E16.181475
G1 F1200 X91.5 Y108.5 Z1 E16.527485
G1 F1200 X92.911765 Y108.5 Z0 E16.873496
G1 F1200 X94.323529 Y108.5 Z1 E17.219506
G1 F1200 X95.735294 Y108.5 Z0 E17.565516
G1 F1200 X97.147059 Y108.5 Z1 E17.911527
G1 F1200 X98.558824 Y108.5 Z0 E18.257537
G1 F1200 X99.970588 Y108.5 Z1 E18.603548
G1 F1200 X101.382353 Y108.5 Z0 E18.949558
G1 F1200 X102.794118 Y108.5 Z1 E19.295568
G1 F1200 X104.205882 Y108.5 Z0 E19.641579
G1 F1200 X105.617647 Y108.5 Z1 E19.987589
G1 F1200 X107.029412 Y108.5 Z0 E20.3336
G1 F1200 X108.441176 Y108.5 Z1 E20.67961
G1 F1200 X108.5 Y107.147059 Z0 E21.016294
G1 F1200 X108.5 Y105.735294 Z1 E21.362305
G1 F1200 X108.5 Y104.323529 Z0 E21.708315
G1 F1200 X108.5 Y102.911765 Z1 E22.054325
G1 F1200 X108.5 Y101.5 Z0 E22.400336
G1 F1200 X109.1 Y100.9 Z0 E22.400336
G1 F1200 X107.45 Y100.9 Z1 E22.786211
G1 F1200 X105.8 Y100.9 Z0 E23.172087
G1 F1200 X104.15 Y100.9 Z1 E23.557963
G1 F1200 X102.5 Y100.9 Z0 E23.943838
G1 F1200 X100.85 Y100.9 Z1 E24.329714
G1 F1200 X99.2 Y100.9 Z0 E24.71559
G1 F1200 X97.55 Y100.9 Z1 E25.101465
G1 F1200 X95.9 Y100.9 Z0 E25.487341
G1 F1200 X94.25 Y100.9 Z1 E25.873217
G1 F1200 X92.6 Y100.9 Z0 E26.259092
G1 F1200 X90.95 Y100.9 Z1 E26.644968
G1 F1200 X90.9 Y102.5 Z0 E27.022459
G1 F1200 X90.9 Y104.15 Z1 E27.408335
G1 F1200 X90.9 Y105.8 Z0 E27.794211
G1 F1200 X90.9 Y107.45 Z1 E28.180086
G1 F1200 X90.9 Y109.1 Z0 E28.565962
G1 F1200 X92.55 Y109.1 Z1 E28.951838
G1 F1200 X94.2 Y109.1 Z0 E29.337713
G1 F1200 X95.85 Y109.1 Z1 E29.723589
G1 F1200 X97.5 Y109.1 Z0 E30.109465
G1 F1200 X99.15 Y109.1 Z1 E30.49534
G1 F1200 X100.8 Y109.1 Z0 E30.881216
G1 F1200 X102.45 Y109.1 Z1 E31.267091
G1 F1200 X104.1 Y109.1 Z0 E31.652967
G1 F1200 X105.75 Y109.1 Z1 E32.038843
G1 F1200 X107.4 Y109.1 Z0 E32.424718
G1 F1200 X109.05 Y109.1 Z1 E32.810594
G1 F1200 X109.1 Y107.5 Z0 E33.188086
G1 F1200 X109.1 Y105.85 Z1 E33.573961
G1 F1200 X109.1 Y104.2 Z0 E33.959837
G1 F1200 X109.1 Y102.55 Z1 E34.345713
G1 F1200 X109.1 Y100.9 Z0 E34.731588
G1 F1200 X109.7 Y100.3 Z0 E34.731588
G1 F1200 X107.78 Y100.3 Z1 E35.16455
G1 F1200 X105.86 Y100.3 Z0 E35.597512
G1 F1200 X103.94 Y100.3 Z1 E36.030474
G1 F1200 X102.02 Y100.3 Z0 E36.463436
G1 F1200 X100.1 Y100.3 Z1 E36.896398
G1 F1200 X98.18 Y100.3 Z0 E37.329359
G1 F1200 X96.26 Y100.3 Z1 E37.762321
G1 F1200 X94.34 Y100.3 Z0 E38.195283
G1 F1200 X92.42 Y100.3 Z1 E38.628245
G1 F1200 X90.5 Y100.3 Z0 E39.061207
G1 F1200 X90.3 Y102.02 Z1 E39.461127
G1 F1200 X90.3 Y103.94 Z0 E39.894089
G1 F1200 X90.3 Y105.86 Z1 E40.327051
G1 F1200 X90.3 Y107.78 Z0 E40.760013
G1 F1200 X90.3 Y109.7 Z1 E41.192975
G1 F1200 X92.22 Y109.7 Z0 E41.625937
G1 F1200 X94.14 Y109.7 Z1 E42.058898
G1 F1200 X96.06 Y109.7 Z0 E42.49186
G1 F1200 X97.98 Y109.7 Z1 E42.924822
G1 F1200 X99.9 Y109.7 Z0 E43.357784
G1 F1200 X101.82 Y109.7 Z1 E43.790746
G1 F1200 X103.74 Y109.7 Z0 E44.223708
G1 F1200 X105.66 Y109.7 Z1 E44.65667
G1 F1200 X107.58 Y109.7 Z0 E45.089632
G1 F1200 X109.5 Y109.7 Z1 E45.522594
G1 F1200 X109.7 Y107.98 Z0 E45.922514
G1 F1200 X109.7 Y106.06 Z1 E46.355475
G1 F1200 X109.7 Y104.14 Z0 E46.788437
G1 F1200 X109.7 Y102.22 Z1 E47.221399
G1 F1200 X109.7 Y100.3 Z0 E47.654361
G1 F1200 X107.9 Y102.1 Z0.3 E47.654361
G1 F1200 X106.55 Y102.1 Z1.3 E47.990367
G1 F1200 X105.2 Y102.1 Z0.3 E48.326373
G1 F1200 X103.85 Y102.1 Z1.3 E48.662379
G1 F1200 X102.5 Y102.1 Z0.3 E48.998385
G1 F1200 X101.15 Y102.1 Z1.3 E49.334391
G1 F1200 X99.8 Y102.1 Z0.3 E49.670397
G1 F1200 X98.45 Y102.1 Z1.3 E50.006403
G1 F1200 X97.1 Y102.1 Z0.3 E50.342409
G1 F1200 X95.75 Y102.1 Z1.3 E50.678415
G1 F1200 X94.4 Y102.1 Z0.3 E51.014421
G1 F1200 X93.05 Y102.1 Z1.3 E51.350427
G1 F1200 X92.1 Y102.5 Z0.3 E51.637655
G1 F1200 X92.1 Y103.85 Z1.3 E51.973661
G1 F1200 X92.1 Y105.2 Z0.3 E52.309667
G1 F1200 X92.1 Y106.55 Z1.3 E52.645673
G1 F1200 X92.1 Y107.9 Z0.3 E52.981679
G1 F1200 X93.45 Y107.9 Z1.3 E53.317684
G1 F1200 X94.8 Y107.9 Z0.3 E53.65369
G1 F1200 X96.15 Y107.9 Z1.3 E53.989696
G1 F1200 X97.5 Y107.9 Z0.3 E54.325702
G1 F1200 X98.85 Y107.9 Z1.3 E54.661708
G1 F1200 X100.2 Y107.9 Z0.3 E54.997714
G1 F1200 X101.55 Y107.9 Z1.3 E55.33372
G1 F1200 X102.9 Y107.9 Z0.3 E55.669726
G1 F1200 X104.25 Y107.9 Z1.3 E56.005732
G1 F1200 X105.6 Y107.9 Z0.3 E56.341738
G1 F1200 X106.95 Y107.9 Z1.3 E56.677744
G1 F1200 X107.9 Y107.5 Z0.3 E56.964972
G1 F1200 X107.9 Y106.15 Z1.3 E57.300978
G1 F1200 X107.9 Y104.8 Z0.3 E57.636984
G1 F1200 X107.9 Y103.45 Z1.3 E57.97299
G1 F1200 X107.9 Y102.1 Z0.3 E58.308996
G1 F1200 X108.5 Y101.5 Z0.3 E58.308996
G1 F1200 X107.088235 Y101.5 Z1.3 E58.655006
G1 F1200 X105.676471 Y101.5 Z0.3 E59.001017
G1 F1200 X104.264706 Y101.5 Z1.3 E59.347027
G1 F1200 X102.852941 Y101.5 Z0.3 E59.693037
G1 F1200 X101.441176 Y101.5 Z1.3 E60.039048
G1 F1200 X100.029412 Y101.5 Z0.3 E60.385058
G1 F1200 X98.617647 Y101.5 Z1.3 E60.731069
G1 F1200 X97.205882 Y101.5 Z0.3 E61.077079
G1 F1200 X95.794118 Y101.5 Z1.3 E61.423089
G1 F1200 X94.382353 Y101.5 Z0.3 E61.7691
G1 F1200 X92.970588 Y101.5 Z1.3 E62.11511
G1 F1200 X91.558824 Y101.5 Z0.3 E62.46112
G1 F1200 X91.5 Y102.852941 Z1.3 E62.797805
G1 F1200 X91.5 Y104.264706 Z0.3 E63.143815
G1 F1200 X91.5 Y105.676471 Z1.3 E63.489826
G1 F1200 X91.5 Y107.088235 Z0.3 E63.835836
G1 F1200 X91.5 Y108.5 Z1.3 E64.181846
G1 F1200 X92.911765 Y108.5 Z0.3 E64.527857
G1 F1200 X94.323529 Y108.5 Z1.3 E64.873867
G1 F1200 X95.735294 Y108.5 Z0.3 E65.219878
G1 F1200 X97.147059 Y108.5 Z1.3 E65.565888
G1 F1200 X98.558824 Y108.5 Z0.3 E65.911898
G1 F1200 X99.970588 Y108.5 Z1.3 E66.257909
G1 F1200 X101.382353 Y108.5 Z0.3 E66.603919
G1 F1200 X102.794118 Y108.5 Z1.3 E66.949929
G1 F1200 X104.205882 Y108.5 Z0.3 E67.29594
G1 F1200 X105.617647 Y108.5 Z1.3 E67.64195
G1 F1200 X107.029412 Y108.5 Z0.3 E67.987961
G1 F1200 X108.441176 Y108.5 Z1.3 E68.333971
G1 F1200 X108.5 Y107.147059 Z0.3 E68.670655
G1 F1200 X108.5 Y105.735294 Z1.3 E69.016666
G1 F1200 X108.5 Y104.323529 Z0.3 E69.362676
G1 F1200 X108.5 Y102.911765 Z1.3 E69.708687
G1 F1200 X108.5 Y101.5 Z0.3 E70.054697
G1 F1200 X109.1 Y100.9 Z0.3 E70.054697
G1 F1200 X107.45 Y100.9 Z1.3 E70.440573
G1 F1200 X105.8 Y100.9 Z0.3 E70.826448
G1 F1200 X104.15 Y100.9 Z1.3 E71.212324
G1 F1200 X102.5 Y100.9 Z0.3 E71.598199
G1 F1200 X100.85 Y100.9 Z1.3 E71.984075
G1 F1200 X99.2 Y100.9 Z0.3 E72.369951
G1 F1200 X97.55 Y100.9 Z1.3 E72.755826
G1 F1200 X95.9 Y100.9 Z0.3 E73.141702
G1 F1200 X94.25 Y100.9 Z1.3 E73.527578
G1 F1200 X92.6 Y100.9 Z0.3 E73.913453
G1 F1200 X90.95 Y100.9 Z1.3 E74.299329
G1 F1200 X90.9 Y102.5 Z0.3 E74.676821
G1 F1200 X90.9 Y104.15 Z1.3 E75.062696
G1 F1200 X90.9 Y105.8 Z0.3 E75.448572
G1 F1200 X90.9 Y107.45 Z1.3 E75.834447
G1 F1200 X90.9 Y109.1 Z0.3 E76.220323
G1 F1200 X92.55 Y109.1 Z1.3 E76.606199
G1 F1200 X94.2 Y109.1 Z0.3 E76.992074
G1 F1200 X95.85 Y109.1 Z1.3 E77.37795
G1 F1200 X97.5 Y109.1 Z0.3 E77.763826
G1 F1200 X99.15 Y109.1 Z1.3 E78.149701
G1 F1200 X100.8 Y109.1 Z0.3 E78.535577
G1 F1200 X102.45 Y109.1 Z1.3 E78.921452
G1 F1200 X104.1 Y109.1 Z0.3 E79.307328
G1 F1200 X105.75 Y109.1 Z1.3 E79.693204
G1 F1200 X107.4 Y109.1 Z0.3 E80.079079
G1 F1200 X109.05 Y109.1 Z1.3 E80.464955
G1 F1200 X109.1 Y107.5 Z0.3 E80.842447
G1 F1200 X109.1 Y105.85 Z1.3 E81.228322
G1 F1200 X109.1 Y104.2 Z0.3 E81.614198
G1 F1200 X109.1 Y102.55 Z1.3 E82.000074
G1 F1200 X109.1 Y100.9 Z0.3 E82.385949
G1 F1200 X109.7 Y100.3 Z0.3 E82.385949
G1 F1200 X107.78 Y100.3 Z1.3 E82.818911
G1 F1200 X105.86 Y100.3 Z0.3 E83.251873
G1 F1200 X103.94 Y100.3 Z1.3 E83.684835
G1 F1200 X102.02 Y100.3 Z0.3 E84.117797
G1 F1200 X100.1 Y100.3 Z1.3 E84.550759
G1 F1200 X98.18 Y100.3 Z0.3 E84.983721
G1 F1200 X96.26 Y100.3 Z1.3 E85.416682
G1 F1200 X94.34 Y100.3 Z0.3 E85.849644
G1 F1200 X92.42 Y100.3 Z1.3 E86.282606
G1 F1200 X90.5 Y100.3 Z0.3 E86.715568
G1 F1200 X90.3 Y102.02 Z1.3 E87.115488
G1 F1200 X90.3 Y103.94 Z0.3 E87.54845
G1 F1200 X90.3 Y105.86 Z1.3 E87.981412
G1 F1200 X90.3 Y107.78 Z0.3 E88.414374
G1 F1200 X90.3 Y109.7 Z1.3 E88.847336
G1 F1200 X92.22 Y109.7 Z0.3 E89.280298
G1 F1200 X94.14 Y109.7 Z1.3 E89.713259
G1 F1200 X96.06 Y109.7 Z0.3 E90.146221
G1 F1200 X97.98 Y109.7 Z1.3 E90.579183
G1 F1200 X99.9 Y109.7 Z0.3 E91.012145
G1 F1200 X101.82 Y109.7 Z1.3 E91.445107
G1 F1200 X103.74 Y109.7 Z0.3 E91.878069
G1 F1200 X105.66 Y109.7 Z1.3 E92.311031
G1 F1200 X107.58 Y109.7 Z0.3 E92.743993
G1 F1200 X109.5 Y109.7 Z1.3 E93.176955
G1 F1200 X109.7 Y107.98 Z0.3 E93.576875
G1 F1200 X109.7 Y106.06 Z1.3 E94.009837
G1 F1200 X109.7 Y104.14 Z0.3 E94.442798
G1 F1200 X109.7 Y102.22 Z1.3 E94.87576
G1 F1200 X109.7 Y100.3 Z0.3 E95.308722
G1 F1200 X107.9 Y102.1 Z0.6 E95.308722
G1 F1200 X106.55 Y102.1 Z1.6 E95.644728
G1 F1200 X105.2 Y102.1 Z0.6 E95.980734
G1 F1200 X103.85 Y102.1 Z1.6 E96.31674
G1 F1200 X102.5 Y102.1 Z0.6 E96.652746
G1 F1200 X101.15 Y102.1 Z1.6 E96.988752
G1 F1200 X99.8 Y102.1 Z0.6 E97.324758
G1 F1200 X98.45 Y102.1 Z1.6 E97.660764
G1 F1200 X97.1 Y102.1 Z0.6 E97.99677
G1 F1200 X95.75 Y102.1 Z1.6 E98.332776
G1 F1200 X94.4 Y102.1 Z0.6 E98.668782
G1 F1200 X93.05 Y102.1 Z1.6 E99.004788
G1 F1200 X92.1 Y102.5 Z0.6 E99.292016
G1 F1200 X92.1 Y103.85 Z1.6 E99.628022
G1 F1200 X92.1 Y105.2 Z0.6 E99.964028
G1 F1200 X92.1 Y106.55 Z1.6 E100.300034
G1 F1200 X92.1 Y107.9 Z0.6 E100.63604
G1 F1200 X93.45 Y107.9 Z1.6 E100.972046
G1 F1200 X94.8 Y107.9 Z0.6 E101.308052
G1 F1200 X96.15 Y107.9 Z1.6 E101.644057
G1 F1200 X97.5 Y107.9 Z0.6 E101.980063
G1 F1200 X98.85 Y107.9 Z1.6 E102.316069
G1 F1200 X100.2 Y107.9 Z0.6 E102.652075
G1 F1200 X101.55 Y107.9 Z1.6 E102.988081
G1 F1200 X102.9 Y107.9 Z0.6 E103.324087
G1 F1200 X104.25 Y107.9 Z1.6 E103.660093
G1 F1200 X105.6 Y107.9 Z0.6 E103.996099
G1 F1200 X106.95 Y107.9 Z1.6 E104.332105
G1 F1200 X107.9 Y107.5 Z0.6 E104.619333
G1 F1200 X107.9 Y106.15 Z1.6 E104.955339
G1 F1200 X107.9 Y104.8 Z0.6 E105.291345
G1 F1200 X107.9 Y103.45 Z1.6 E105.627351
G1 F1200 X107.9 Y102.1 Z0.6 E105.963357
G1 F1200 X108.5 Y101.5 Z0.6 E105.963357
G1 F1200 X107.088235 Y101.5 Z1.6 E106.309367
G1 F1200 X105.676471 Y101.5 Z0.6 E106.655378
G1 F1200 X104.264706 Y101.5 Z1.6 E107.001388
G1 F1200 X102.852941 Y101.5 Z0.6 E107.347399
G1 F1200 X101.441176 Y101.5 Z1.6 E107.693409
G1 F1200 X100.029412 Y101.5 Z0.6 E108.039419
G1 F1200 X98.617647 Y101.5 Z1.6 E108.38543
G1 F1200 X97.205882 Y101.5 Z0.6 E108.73144
G1 F1200 X95.794118 Y101.5 Z1.6 E109.07745
G1 F1200 X94.382353 Y101.5 Z0.6 E109.423461
G1 F1200 X92.970588 Y101.5 Z1.6 E109.769471
G1 F1200 X91.558824 Y101.5 Z0.6 E110.115482
G1 F1200 X91.5 Y102.852941 Z1.6 E110.452166
G1 F1200 X91.5 Y104.264706 Z0.6 E110.798176
G1 F1200 X91.5 Y105.676471 Z1.6 E111.144187
G1 F1200 X91.5 Y107.088235 Z0.6 E111.490197
G1 F1200 X91.5 Y108.5 Z1.6 E111.836208
G1 F1200 X92.911765 Y108.5 Z0.6 E112.182218
G1 F1200 X94.323529 Y108.5 Z1.6 E112.528228
G1 F1200 X95.735294 Y108.5 Z0.6 E112.874239
G1 F1200 X97.147059 Y108.5 Z1.6 E113.220249
G1 F1200 X98.558824 Y108.5 Z0.6 E113.566259
G1 F1200 X99.970588 Y108.5 Z1.6 E113.91227
G1 F1200 X101.382353 Y108.5 Z0.6 E114.25828
G1 F1200 X102.794118 Y108.5 Z1.6 E114.604291
G1 F1200 X104.205882 Y108.5 Z0.6 E114.950301
G1 F1200 X105.617647 Y108.5 Z1.6 E115.296311
G1 F1200 X107.029412 Y108.5 Z0.6 E115.642322
G1 F1200 X108.441176 Y108.5 Z1.6 E115.988332
G1 F1200 X108.5 Y107.147059 Z0.6 E116.325017
G1 F1200 X108.5 Y105.735294 Z1.6 E116.671027
G1 F1200 X108.5 Y104.323529 Z0.6 E117.017037
G1 F1200 X108.5 Y102.911765 Z1.6 E117.363048
G1 F1200 X108.5 Y101.5 Z0.6 E117.709058
G1 F1200 X109.1 Y100.9 Z0.6 E117.709058
G1 F1200 X107.45 Y100.9 Z1.6 E118.094934
G1 F1200 X105.8 Y100.9 Z0.6 E118.480809
G1 F1200 X104.15 Y100.9 Z1.6 E118.866685
G1 F1200 X102.5 Y100.9 Z0.6 E119.252561
G1 F1200 X100.85 Y100.9 Z1.6 E119.638436
