;FLAVOR:UltiGCode
;TIME:401
;MATERIAL:421
;MATERIAL2:0
;NOZZLE_DIAMETER:0.600000
;NOZZLE_DIAMETER2:0.600000
;Layer count: 41
;LAYER:0
M107
G0 F9000 X100 Y100 Z0.180
G0 X100.105 Y101.376
G1 F1200 X115.7 Y94.3 Z0.180685 E0
G1 F1200 X115.7 Y115.7 Z0.180685 E4.28
G1 F1200 X84.3 Y115.7 Z0.180685 E10.56
G1 F1200 X84.3 Y94.3 Z0.180685 E14.84
G1 F1200 X115.7 Y94.3 Z0.180685 E21.12
G1 F1200 X115.1 Y94.9 Z0.180685 E21.12
G1 F1200 X115.1 Y115.1 Z0.180685 E25.16
G1 F1200 X84.9 Y115.1 Z0.180685 E31.2
G1 F1200 X84.9 Y94.9 Z0.180685 E35.24
G1 F1200 X115.1 Y94.9 Z0.180685 E41.28
G1 F1200 X114.5 Y95.5 Z0.180685 E41.28
G1 F1200 X114.5 Y114.5 Z0.180685 E45.08
G1 F1200 X85.5 Y114.5 Z0.180685 E50.88
G1 F1200 X85.5 Y95.5 Z0.180685 E54.68
G1 F1200 X114.5 Y95.5 Z0.180685 E60.48
G1 F1200 X113.9 Y96.1 Z0.180685 E60.48
G1 F1200 X113.9 Y113.9 Z0.180685 E64.04
G1 F1200 X86.1 Y113.9 Z0.180685 E69.6
G1 F1200 X86.1 Y96.1 Z0.180685 E73.16
G1 F1200 X113.9 Y96.1 Z0.180685 E78.72
G1 F1200 X113.3 Y96.7 Z0.180685 E78.72
G1 F1200 X113.3 Y113.3 Z0.180685 E82.04
G1 F1200 X86.7 Y113.3 Z0.180685 E87.36
G1 F1200 X86.7 Y96.7 Z0.180685 E90.68
G1 F1200 X113.3 Y96.7 Z0.180685 E96
G1 F1200 X112.7 Y97.3 Z0.180685 E96
G1 F1200 X112.7 Y112.7 Z0.180685 E99.08
G1 F1200 X87.3 Y112.7 Z0.180685 E104.16
G1 F1200 X87.3 Y97.3 Z0.180685 E107.24
G1 F1200 X112.7 Y97.3 Z0.180685 E112.32
G1 F1200 X112.1 Y97.9 Z0.180685 E112.32
G1 F1200 X112.1 Y112.1 Z0.180685 E115.16
G1 F1200 X87.9 Y112.1 Z0.180685 E120
G1 F1200 X87.9 Y97.9 Z0.180685 E122.84
G1 F1200 X112.1 Y97.9 Z0.180685 E127.68
G1 F1200 X111.5 Y98.5 Z0.180685 E127.68
G1 F1200 X111.5 Y111.5 Z0.180685 E130.28
G1 F1200 X88.5 Y111.5 Z0.180685 E134.88
G1 F1200 X88.5 Y98.5 Z0.180685 E137.48
G1 F1200 X111.5 Y98.5 Z0.180685 E142.08
G1 F1200 X110.9 Y99.1 Z0.180685 E142.08
G1 F1200 X110.9 Y110.9 Z0.180685 E144.44
G1 F1200 X89.1 Y110.9 Z0.180685 E148.8
G1 F1200 X89.1 Y99.1 Z0.180685 E151.16
G1 F1200 X110.9 Y99.1 Z0.180685 E155.52
G1 F1200 X110.3 Y99.7 Z0.180685 E155.52
G1 F1200 X110.3 Y110.3 Z0.180685 E157.64
G1 F1200 X89.7 Y110.3 Z0.180685 E161.76
G1 F1200 X89.7 Y99.7 Z0.180685 E163.88
G1 F1200 X110.3 Y99.7 Z0.180685 E168
G1 F1200 X92.1 Y107.9 Z0 E168
G1 F1200 X94.2 Y107.9 Z0 E168.42
G1 F1200 X96.15 Y107.9 Z1 E168.858292
G1 F1200 X98.1 Y107.9 Z0 E169.296584
G1 F1200 X100.05 Y107.9 Z1 E169.734876
G1 F1200 X102 Y107.9 Z0 E170.173169
G1 F1200 X103.95 Y107.9 Z1 E170.611461
G1 F1200 X105.9 Y107.9 Z0 E171.049753
G1 F1200 X107.9 Y107.9 Z0 E171.449753
G1 F1200 X107.9 Y106.95 Z0 E171.639753
G1 F1200 X107.9 Y105 Z1 E172.078045
G1 F1200 X107.9 Y103.05 Z0 E172.516337
G1 F1200 X107.9 Y102.1 Z0 E172.706337
G1 F1200 X105.9 Y102.1 Z0 E173.106337
G1 F1200 X103.95 Y102.1 Z1 E173.544629
G1 F1200 X102 Y102.1 Z0 E173.982921
G1 F1200 X100.05 Y102.1 Z1 E174.421214
G1 F1200 X98.1 Y102.1 Z0 E174.859506
G1 F1200 X96.15 Y102.1 Z1 E175.297798
G1 F1200 X94.2 Y102.1 Z0 E175.73609
G1 F1200 X92.1 Y102.1 Z0 E176.15609
G1 F1200 X92.1 Y103.05 Z0 E176.34609
G1 F1200 X92.1 Y105 Z1 E176.784382
G1 F1200 X92.1 Y106.95 Z0 E177.222674
G1 F1200 X92.1 Y107.9 Z0 E177.412674
G1 F1200 X92.065 Y108.5 Z0 E177.412674
G1 F1200 X94.200523 Y108.498133 Z0 E177.839779
G1 F1200 X96.150523 Y108.498133 Z1 E178.278071
G1 F1200 X98.100523 Y108.498133 Z0 E178.716363
G1 F1200 X100.050523 Y108.498133 Z1 E179.154655
G1 F1200 X102.000523 Y108.498133 Z0 E179.592948
G1 F1200 X103.950523 Y108.498133 Z1 E180.03124
G1 F1200 X105.888181 Y108.487916 Z0 E180.467342
G1 F1200 X108.08 Y108.486 Z0 E180.905706
G1 F1200 X108.216 Y108.447 Z0 E180.934002
G1 F1200 X108.352 Y108.352 Z0 E180.967181
G1 F1200 X108.445 Y108.222 Z0 E180.999149
G1 F1200 X108.486 Y108.08 Z0 E181.028709
G1 F1200 X108.5 Y107.935 Z0 E181.057844
G1 F1200 X108.497707 Y106.949979 Z0 E181.254849
G1 F1200 X108.488627 Y105 Z1 E181.693141
G1 F1200 X108.48863 Y103.05 Z0 E182.131433
G1 F1200 X108.486 Y101.92 Z0 E182.357434
G1 F1200 X108.447 Y101.784 Z0 E182.38573
G1 F1200 X108.414 Y101.726 Z0 E182.399076
G1 F1200 X108.352 Y101.648 Z0 E182.419004
G1 F1200 X108.222 Y101.555 Z0 E182.450972
G1 F1200 X108.08 Y101.514 Z0 E182.480532
G1 F1200 X107.935 Y101.5 Z0 E182.509667
G1 F1200 X105.900523 Y101.501867 Z0 E182.916563
G1 F1200 X103.950523 Y101.501867 Z1 E183.354855
G1 F1200 X102.000523 Y101.501867 Z0 E183.793147
G1 F1200 X100.050523 Y101.501867 Z1 E184.231439
G1 F1200 X98.100523 Y101.501867 Z0 E184.669731
G1 F1200 X96.150523 Y101.501867 Z1 E185.108023
G1 F1200 X94.200532 Y101.512006 Z0 E185.546319
G1 F1200 X91.92 Y101.514 Z0 E186.002425
G1 F1200 X91.784 Y101.553 Z0 E186.030721
G1 F1200 X91.648 Y101.648 Z0 E186.0639
G1 F1200 X91.556 Y101.777 Z0 E186.095589
G1 F1200 X91.514 Y101.92 Z0 E186.125397
G1 F1200 X91.5 Y102.065 Z0 E186.154532
G1 F1200 X91.502327 Y103.064803 Z0 E186.354493
G1 F1200 X91.511373 Y105 Z1 E186.790157
G1 F1200 X91.511373 Y106.95 Z0 E187.228449
G1 F1200 X91.514 Y108.08 Z0 E187.45445
G1 F1200 X91.553 Y108.216 Z0 E187.482746
G1 F1200 X91.648 Y108.352 Z0 E187.515925
G1 F1200 X91.778 Y108.445 Z0 E187.547893
G1 F1200 X91.92 Y108.486 Z0 E187.577453
G1 F1200 X92.065 Y108.5 Z0 E187.606588
G1 F1200 X92.041 Y109.1 Z0 E187.606588
G1 F1200 X94.2 Y109.1 Z0 E188.038388
G1 F1200 X96.15 Y109.1 Z1 E188.47668
G1 F1200 X98.1 Y109.1 Z0 E188.914972
G1 F1200 X100.05 Y109.1 Z1 E189.353264
G1 F1200 X102 Y109.1 Z0 E189.791557
G1 F1200 X103.95 Y109.1 Z1 E190.229849
G1 F1200 X105.9 Y109.1 Z0 E190.668141
G1 F1200 X107.959 Y109.1 Z0 E191.079941
G1 F1200 X108.196 Y109.078 Z0 E191.127545
G1 F1200 X108.423 Y109.013 Z0 E191.174769
G1 F1200 X108.607 Y108.915 Z0 E191.216463
G1 F1200 X108.69 Y108.854 Z0 E191.237064
G1 F1200 X108.777 Y108.777 Z0 E191.2603
G1 F1200 X108.854 Y108.69 Z0 E191.283537
G1 F1200 X108.915 Y108.607 Z0 E191.304138
G1 F1200 X109.013 Y108.423 Z0 E191.345832
G1 F1200 X109.078 Y108.196 Z0 E191.393056
G1 F1200 X109.1 Y107.959 Z0 E191.44066
G1 F1200 X109.1 Y106.95 Z0 E191.64246
G1 F1200 X109.1 Y105 Z1 E192.080752
G1 F1200 X109.1 Y103.05 Z0 E192.519044
G1 F1200 X109.1 Y102.041 Z0 E192.720844
G1 F1200 X109.078 Y101.804 Z0 E192.768448
G1 F1200 X109.013 Y101.577 Z0 E192.815673
G1 F1200 X108.915 Y101.393 Z0 E192.857367
G1 F1200 X108.854 Y101.31 Z0 E192.877968
G1 F1200 X108.777 Y101.223 Z0 E192.901204
G1 F1200 X108.69 Y101.146 Z0 E192.92444
G1 F1200 X108.607 Y101.085 Z0 E192.945041
G1 F1200 X108.423 Y100.987 Z0 E192.986735
G1 F1200 X108.196 Y100.922 Z0 E193.03396
G1 F1200 X107.959 Y100.9 Z0 E193.081564
G1 F1200 X105.9 Y100.9 Z0 E193.493364
G1 F1200 X103.95 Y100.9 Z1 E193.931656
G1 F1200 X102 Y100.9 Z0 E194.369948
G1 F1200 X100.05 Y100.9 Z1 E194.80824
G1 F1200 X98.1 Y100.9 Z0 E195.246532
G1 F1200 X96.15 Y100.9 Z1 E195.684824
G1 F1200 X94.2 Y100.9 Z0 E196.123116
G1 F1200 X92.041 Y100.9 Z0 E196.554916
G1 F1200 X91.804 Y100.922 Z0 E196.60252
G1 F1200 X91.577 Y100.987 Z0 E196.649745
G1 F1200 X91.393 Y101.085 Z0 E196.691439
G1 F1200 X91.31 Y101.146 Z0 E196.71204
G1 F1200 X91.223 Y101.223 Z0 E196.735276
G1 F1200 X91.146 Y101.31 Z0 E196.758512
G1 F1200 X91.085 Y101.393 Z0 E196.779113
G1 F1200 X90.987 Y101.577 Z0 E196.820807
G1 F1200 X90.922 Y101.804 Z0 E196.868032
G1 F1200 X90.9 Y102.041 Z0 E196.915636
G1 F1200 X90.9 Y103.05 Z0 E197.117436
G1 F1200 X90.9 Y105 Z1 E197.555728
G1 F1200 X90.9 Y106.95 Z0 E197.99402
G1 F1200 X90.9 Y107.959 Z0 E198.19582
G1 F1200 X90.922 Y108.196 Z0 E198.243424
G1 F1200 X90.987 Y108.423 Z0 E198.290648
G1 F1200 X91.085 Y108.607 Z0 E198.332342
G1 F1200 X91.146 Y108.69 Z0 E198.352943
G1 F1200 X91.223 Y108.777 Z0 E198.37618
G1 F1200 X91.31 Y108.854 Z0 E198.399416
G1 F1200 X91.393 Y108.915 Z0 E198.420017
G1 F1200 X91.577 Y109.013 Z0 E198.461711
G1 F1200 X91.804 Y109.078 Z0 E198.508935
G1 F1200 X92.041 Y109.1 Z0 E198.556539
G1 F1200 X92.017 Y109.7 Z0 E198.556539
G1 F1200 X94.2 Y109.7 Z0 E198.993139
G1 F1200 X96.15 Y109.7 Z1 E199.431431
G1 F1200 X98.1 Y109.7 Z0 E199.869724
G1 F1200 X100.05 Y109.7 Z1 E200.308016
G1 F1200 X102 Y109.7 Z0 E200.746308
G1 F1200 X103.95 Y109.7 Z1 E201.1846
G1 F1200 X105.9 Y109.7 Z0 E201.622892
G1 F1200 X107.983 Y109.7 Z0 E202.039492
G1 F1200 X108.31 Y109.669 Z0 E202.105185
G1 F1200 X108.631 Y109.577 Z0 E202.17197
G1 F1200 X108.933 Y109.419 Z0 E202.240137
G1 F1200 X109.202 Y109.202 Z0 E202.30926
G1 F1200 X109.419 Y108.933 Z0 E202.378383
G1 F1200 X109.577 Y108.631 Z0 E202.44655
G1 F1200 X109.669 Y108.31 Z0 E202.513335
G1 F1200 X109.7 Y107.983 Z0 E202.579028
G1 F1200 X109.7 Y106.95 Z0 E202.785628
G1 F1200 X109.7 Y105 Z1 E203.22392
G1 F1200 X109.7 Y103.05 Z0 E203.662212
G1 F1200 X109.7 Y102.017 Z0 E203.868812
G1 F1200 X109.669 Y101.69 Z0 E203.934505
G1 F1200 X109.577 Y101.369 Z0 E204.00129
G1 F1200 X109.419 Y101.067 Z0 E204.069457
G1 F1200 X109.202 Y100.798 Z0 E204.13858
G1 F1200 X108.933 Y100.581 Z0 E204.207703
G1 F1200 X108.631 Y100.423 Z0 E204.27587
G1 F1200 X108.31 Y100.331 Z0 E204.342655
G1 F1200 X107.983 Y100.3 Z0 E204.408348
G1 F1200 X105.9 Y100.3 Z0 E204.824948
G1 F1200 X103.95 Y100.3 Z1 E205.26324
G1 F1200 X102 Y100.3 Z0 E205.701532
G1 F1200 X100.05 Y100.3 Z1 E206.139824
G1 F1200 X98.1 Y100.3 Z0 E206.578116
G1 F1200 X96.15 Y100.3 Z1 E207.016409
G1 F1200 X94.2 Y100.3 Z0 E207.454701
G1 F1200 X92.017 Y100.3 Z0 E207.891301
G1 F1200 X91.69 Y100.331 Z0 E207.956994
G1 F1200 X91.369 Y100.423 Z0 E208.023779
G1 F1200 X91.067 Y100.581 Z0 E208.091946
G1 F1200 X90.798 Y100.798 Z0 E208.161069
G1 F1200 X90.581 Y101.067 Z0 E208.230192
G1 F1200 X90.423 Y101.369 Z0 E208.298359
G1 F1200 X90.331 Y101.69 Z0 E208.365143
G1 F1200 X90.3 Y102.017 Z0 E208.430837
G1 F1200 X90.3 Y103.05 Z0 E208.637437
G1 F1200 X90.3 Y105 Z1 E209.075729
G1 F1200 X90.3 Y106.95 Z0 E209.514021
G1 F1200 X90.3 Y107.983 Z0 E209.720621
G1 F1200 X90.331 Y108.31 Z0 E209.786314
G1 F1200 X90.423 Y108.631 Z0 E209.853099
G1 F1200 X90.581 Y108.933 Z0 E209.921266
G1 F1200 X90.798 Y109.202 Z0 E209.990389
G1 F1200 X91.067 Y109.419 Z0 E210.059512
G1 F1200 X91.369 Y109.577 Z0 E210.127679
G1 F1200 X91.69 Y109.669 Z0 E210.194463
G1 F1200 X92.017 Y109.7 Z0 E210.260157
G1 F1200 X92.1 Y107.9 Z0.3 E210.260157
G1 F1200 X94.2 Y107.9 Z0.3 E210.680157
G1 F1200 X96.15 Y107.9 Z1.3 E211.118449
G1 F1200 X98.1 Y107.9 Z0.3 E211.556741
G1 F1200 X100.05 Y107.9 Z1.3 E211.995033
G1 F1200 X102 Y107.9 Z0.3 E212.433325
G1 F1200 X103.95 Y107.9 Z1.3 E212.871617
G1 F1200 X105.9 Y107.9 Z0.3 E213.309909
G1 F1200 X107.9 Y107.9 Z0.3 E213.709909
G1 F1200 X107.9 Y106.95 Z0.3 E213.899909
G1 F1200 X107.9 Y105 Z1.3 E214.338202
G1 F1200 X107.9 Y103.05 Z0.3 E214.776494
G1 F1200 X107.9 Y102.1 Z0.3 E214.966494
G1 F1200 X105.9 Y102.1 Z0.3 E215.366494
G1 F1200 X103.95 Y102.1 Z1.3 E215.804786
G1 F1200 X102 Y102.1 Z0.3 E216.243078
G1 F1200 X100.05 Y102.1 Z1.3 E216.68137
G1 F1200 X98.1 Y102.1 Z0.3 E217.119662
G1 F1200 X96.15 Y102.1 Z1.3 E217.557954
G1 F1200 X94.2 Y102.1 Z0.3 E217.996247
G1 F1200 X92.1 Y102.1 Z0.3 E218.416247
G1 F1200 X92.1 Y103.05 Z0.3 E218.606247
G1 F1200 X92.1 Y105 Z1.3 E219.044539
G1 F1200 X92.1 Y106.95 Z0.3 E219.482831
G1 F1200 X92.1 Y107.9 Z0.3 E219.672831
G1 F1200 X92.065 Y108.5 Z0.3 E219.672831
G1 F1200 X94.200523 Y108.498133 Z0.3 E220.099936
G1 F1200 X96.150523 Y108.498133 Z1.3 E220.538228
G1 F1200 X98.100523 Y108.498133 Z0.3 E220.97652
G1 F1200 X100.050523 Y108.498133 Z1.3 E221.414812
G1 F1200 X102.000523 Y108.498133 Z0.3 E221.853104
G1 F1200 X103.950523 Y108.498133 Z1.3 E222.291396
G1 F1200 X105.888181 Y108.487916 Z0.3 E222.727498
G1 F1200 X108.08 Y108.486 Z0.3 E223.165862
G1 F1200 X108.216 Y108.447 Z0.3 E223.194159
G1 F1200 X108.352 Y108.352 Z0.3 E223.227337
G1 F1200 X108.445 Y108.222 Z0.3 E223.259306
G1 F1200 X108.486 Y108.08 Z0.3 E223.288866
G1 F1200 X108.5 Y107.935 Z0.3 E223.318001
G1 F1200 X108.497707 Y106.949979 Z0.3 E223.515005
G1 F1200 X108.488627 Y105 Z1.3 E223.953297
G1 F1200 X108.48863 Y103.05 Z0.3 E224.39159
G1 F1200 X108.486 Y101.92 Z0.3 E224.61759
G1 F1200 X108.447 Y101.784 Z0.3 E224.645886
G1 F1200 X108.414 Y101.726 Z0.3 E224.659233
G1 F1200 X108.352 Y101.648 Z0.3 E224.67916
G1 F1200 X108.222 Y101.555 Z0.3 E224.711129
G1 F1200 X108.08 Y101.514 Z0.3 E224.740689
G1 F1200 X107.935 Y101.5 Z0.3 E224.769824
G1 F1200 X105.900523 Y101.501867 Z0.3 E225.176719
G1 F1200 X103.950523 Y101.501867 Z1.3 E225.615011
G1 F1200 X102.000523 Y101.501867 Z0.3 E226.053303
G1 F1200 X100.050523 Y101.501867 Z1.3 E226.491596
G1 F1200 X98.100523 Y101.501867 Z0.3 E226.929888
G1 F1200 X96.150523 Y101.501867 Z1.3 E227.36818
G1 F1200 X94.200532 Y101.512006 Z0.3 E227.806475
G1 F1200 X91.92 Y101.514 Z0.3 E228.262582
G1 F1200 X91.784 Y101.553 Z0.3 E228.290878
G1 F1200 X91.648 Y101.648 Z0.3 E228.324057
G1 F1200 X91.556 Y101.777 Z0.3 E228.355746
G1 F1200 X91.514 Y101.92 Z0.3 E228.385554
G1 F1200 X91.5 Y102.065 Z0.3 E228.414689
G1 F1200 X91.502327 Y103.064803 Z0.3 E228.61465
G1 F1200 X91.511373 Y105 Z1.3 E229.050314
G1 F1200 X91.511373 Y106.95 Z0.3 E229.488606
G1 F1200 X91.514 Y108.08 Z0.3 E229.714606
G1 F1200 X91.553 Y108.216 Z0.3 E229.742903
G1 F1200 X91.648 Y108.352 Z0.3 E229.776082
G1 F1200 X91.778 Y108.445 Z0.3 E229.80805
G1 F1200 X91.92 Y108.486 Z0.3 E229.83761
G1 F1200 X92.065 Y108.5 Z0.3 E229.866745
G1 F1200 X92.041 Y109.1 Z0.3 E229.866745
G1 F1200 X94.2 Y109.1 Z0.3 E230.298545
G1 F1200 X96.15 Y109.1 Z1.3 E230.736837
G1 F1200 X98.1 Y109.1 Z0.3 E231.175129
G1 F1200 X100.05 Y109.1 Z1.3 E231.613421
G1 F1200 X102 Y109.1 Z0.3 E232.051713
G1 F1200 X103.95 Y109.1 Z1.3 E232.490005
G1 F1200 X105.9 Y109.1 Z0.3 E232.928297
G1 F1200 X107.959 Y109.1 Z0.3 E233.340097
G1 F1200 X108.196 Y109.078 Z0.3 E233.387701
G1 F1200 X108.423 Y109.013 Z0.3 E233.434926
G1 F1200 X108.607 Y108.915 Z0.3 E233.47662
G1 F1200 X108.69 Y108.854 Z0.3 E233.497221
G1 F1200 X108.777 Y108.777 Z0.3 E233.520457
G1 F1200 X108.854 Y108.69 Z0.3 E233.543693
G1 F1200 X108.915 Y108.607 Z0.3 E233.564294
G1 F1200 X109.013 Y108.423 Z0.3 E233.605988
G1 F1200 X109.078 Y108.196 Z0.3 E233.653213
G1 F1200 X109.1 Y107.959 Z0.3 E233.700817
G1 F1200 X109.1 Y106.95 Z0.3 E233.902617
G1 F1200 X109.1 Y105 Z1.3 E234.340909
G1 F1200 X109.1 Y103.05 Z0.3 E234.779201
G1 F1200 X109.1 Y102.041 Z0.3 E234.981001
G1 F1200 X109.078 Y101.804 Z0.3 E235.028605
G1 F1200 X109.013 Y101.577 Z0.3 E235.075829
G1 F1200 X108.915 Y101.393 Z0.3 E235.117523
G1 F1200 X108.854 Y101.31 Z0.3 E235.138124
G1 F1200 X108.777 Y101.223 Z0.3 E235.161361
G1 F1200 X108.69 Y101.146 Z0.3 E235.184597
G1 F1200 X108.607 Y101.085 Z0.3 E235.205198
G1 F1200 X108.423 Y100.987 Z0.3 E235.246892
G1 F1200 X108.196 Y100.922 Z0.3 E235.294116
G1 F1200 X107.959 Y100.9 Z0.3 E235.34172
G1 F1200 X105.9 Y100.9 Z0.3 E235.75352
G1 F1200 X103.95 Y100.9 Z1.3 E236.191812
G1 F1200 X102 Y100.9 Z0.3 E236.630105
G1 F1200 X100.05 Y100.9 Z1.3 E237.068397
G1 F1200 X98.1 Y100.9 Z0.3 E237.506689
G1 F1200 X96.15 Y100.9 Z1.3 E237.944981
G1 F1200 X94.2 Y100.9 Z0.3 E238.383273
G1 F1200 X92.041 Y100.9 Z0.3 E238.815073
G1 F1200 X91.804 Y100.922 Z0.3 E238.862677
G1 F1200 X91.577 Y100.987 Z0.3 E238.909901
G1 F1200 X91.393 Y101.085 Z0.3 E238.951596
G1 F1200 X91.31 Y101.146 Z0.3 E238.972197
G1 F1200 X91.223 Y101.223 Z0.3 E238.995433
G1 F1200 X91.146 Y101.31 Z0.3 E239.018669
G1 F1200 X91.085 Y101.393 Z0.3 E239.03927
G1 F1200 X90.987 Y101.577 Z0.3 E239.080964
G1 F1200 X90.922 Y101.804 Z0.3 E239.128189
G1 F1200 X90.9 Y102.041 Z0.3 E239.175792
G1 F1200 X90.9 Y103.05 Z0.3 E239.377592
G1 F1200 X90.9 Y105 Z1.3 E239.815884
G1 F1200 X90.9 Y106.95 Z0.3 E240.254177
G1 F1200 X90.9 Y107.959 Z0.3 E240.455977
G1 F1200 X90.922 Y108.196 Z0.3 E240.50358
G1 F1200 X90.987 Y108.423 Z0.3 E240.550805
G1 F1200 X91.085 Y108.607 Z0.3 E240.592499
G1 F1200 X91.146 Y108.69 Z0.3 E240.6131
G1 F1200 X91.223 Y108.777 Z0.3 E240.636336
G1 F1200 X91.31 Y108.854 Z0.3 E240.659572
G1 F1200 X91.393 Y108.915 Z0.3 E240.680173
G1 F1200 X91.577 Y109.013 Z0.3 E240.721868
